!!!!SEGMENT: pl-stab--6a--001-006_dankowski-adalbert--vespera-de-confes-ex-c-laudate-dominus.krn
!!!cenid: 18xx:3466
!!!COM: Dankowski, Adalbert
!!!COM-rismID: pe30000793
!!!CDT: ~1760-~1836
!!!CNT: Polish
!!!OPR: Vespera de Confes ex C
!!!OTL: Laudate Dominus
!!!OMV: 006
!!!PDT:
!!!AGN: Sacred; Vespers
!!!SMS-siglum: PL-STAb
!!!SMS-shelfmark: 6a
!!!SMS-shelfwork: 001-006 M
!!!SMS-variant:
!!!SMS-altvar:
!!!NIFC-rismSourceID: 301050559
!!!NIFC-islandoraID: pl-stab:1600
!!!URL-pdf-islandora: https://repozytorium.nifc.pl/islandora/object/pl-stab%3A1600/datastream/PDF/view
!!!URL-scan: https://polish.musicsources.pl/pl/lokalizacje/galeria/rekopisy/4540 @EN{Scan on Polish Music Sources Website} @PL{Skany w portalu Dziedzictwo Muzyki Polskiej w otwartym dostępie}
!!!ONB-nifc: UWAGA: części Vesperae: 1. Domine ad adjuvandum, 2. Dixit Dominus, 3. Confitebor, 4. Beatus vir, 5. Laudate pueri, 6. Laudate Dominus, 7. Magnificat
!!!AIN: 1 alto 1 bass 2 clars 1 organ 1 soprn 1 tenor 2 violn
!!!key: F
**kern	**fba	**dynam	**kern	**dynam	**kern	**dynam	**kern	**text	**mod-text	**text	**mod-text	**dynam	**kern	**text	**mod-text	**text	**mod-text	**dynam	**kern	**text	**mod-text	**text	**mod-text	**dynam	**kern	**text	**mod-text	**text	**mod-text	**dynam	**kern	**kern
*	*	*	*group3	*	*group3	*	*group2	*	*	*	*	*	*group2	*	*	*	*	*	*group2	*	*	*	*	*	*group2	*	*	*	*	*	*group1	*group1
*part9	*part9	*	*part6	*part6	*part5	*part5	*part4	*part4	*part4	*part4	*part4	*	*part3	*part3	*part3	*part3	*part3	*	*part2	*part2	*part2	*part2	*part2	*part2	*part1	*part1	*part1	*part1	*part1	*part1	*part8	*part7
*staff9	*	*	*staff6	*	*staff5	*	*staff4	*staff4	*staff4	*staff4	*staff4	*	*staff3	*staff3	*staff3	*staff3	*staff3	*	*staff2	*staff2	*staff2	*staff2	*staff2	*	*staff1	*staff1	*staff1	*staff1	*staff1	*	*staff8	*staff7
*I"Organo	*	*	*I"Violino Secundo	*	*I"Violino Primo	*	*I"Baſso	*	*	*	*	*	*I"Tenore	*	*	*	*	*	*I"Alto	*	*	*	*	*	*I"Canto	*	*	*	*	*	*I"Clarino Secundo in C	*I"Clarino Primo in C
*I'org	*	*	*I'vl 2	*	*I'vl 1	*	*I'B	*	*	*	*	*	*I'T	*	*	*	*	*	*I'A	*	*	*	*	*	*I'S	*	*	*	*	*	*I'clno 2 in C	*I'clno 1 in C
*Iorgan	*	*	*Ivioln	*	*Ivioln	*	*Ibass	*	*	*	*	*	*Itenor	*	*	*	*	*	*Ialto	*	*	*	*	*	*Isoprn	*	*	*	*	*	*Iclars	*Iclars
*ICklav	*	*	*ICstr	*	*ICstr	*	*ICvox	*	*	*	*	*	*ICvox	*	*	*	*	*	*ICvox	*	*	*	*	*	*ICvox	*	*	*	*	*	*ICww	*ICww
*IGcont	*	*	*IGacmp	*	*IGacmp	*	*IGcoro	*	*	*	*	*	*IGcoro	*	*	*	*	*	*IGcoro	*	*	*	*	*	*IGcoro	*	*	*	*	*	*IGacmp	*IGacmp
*	*	*	*mI"Violino II	*	*mI"Violino I	*	*mI"Basso	*	*	*	*	*	*	*	*	*	*	*	*	*	*	*	*	*	*mI"Soprano	*	*	*	*	*	*mI"Clarino II in F	*mI"Clarino I in F
*clefF4	*	*	*clefG2	*	*clefG2	*	*clefF4	*	*	*	*	*	*clefC4	*	*	*	*	*	*clefC3	*	*	*	*	*	*clefC1	*	*	*	*	*	*clefG2	*clefG2
*	*	*	*	*	*	*	*	*	*	*	*	*	*mclefGv2	*	*	*	*	*	*mclefG2	*	*	*	*	*	*mclefG2	*	*	*	*	*	*	*
*	*	*	*	*	*	*	*	*	*	*	*	*	*	*	*	*	*	*	*	*	*	*	*	*	*	*	*	*	*	*	*ITrd-3c-5	*ITrd-3c-5
*k[b-]	*	*	*k[b-]	*	*k[b-]	*	*k[b-]	*	*	*	*	*	*k[b-]	*	*	*	*	*	*k[b-]	*	*	*	*	*	*k[b-]	*	*	*	*	*	*k[b-]	*k[b-]
*F:	*	*	*F:	*	*F:	*	*F:	*	*	*	*	*	*F:	*	*	*	*	*	*F:	*	*	*	*	*	*F:	*	*	*	*	*	*F:	*F:
!	!	!	!	!	!	!	!	!	!	!	!	!	!	!	!	!	!	!	!	!	!	!	!	!	!	!	!	!	!	!	!LO:MO:mod=*M2/4	!
*M2/4	*	*	*M2/4	*	*M2/4	*	*M2/4	*	*	*	*	*	*M2/4	*	*	*	*	*	*M2/4	*	*	*	*	*	*M2/4	*	*	*	*	*	*M3/4	*M2/4
=1	=1	=1	=1	=1	=1	=1	=1	=1	=1	=1	=1	=1	=1	=1	=1	=1	=1	=1	=1	=1	=1	=1	=1	=1	=1	=1	=1	=1	=1	=1	=1	=1
!	!	!	!	!	!	!	!	!	!	!	!	!	!	!	!	!	!	!	!LO:TX:a:i:rj:t=Solo	!	!	!	!	!	!LO:TX:a:i:rj:t=Solo	!	!	!	!	!	!LO:TX:t=P:problem=omyłkowo metrum 3/4	!
!LO:TX:a:i:rj:t=Allegretto:mod=	!	!LO:MO:null:mod=p	!LO:TX:a:i:rj:t=Allegretto:mod=	!LO:DY:a:t=p.	!LO:TX:a:i:t=Allegretto:mod=	!LO:DY:a:rj:t=p.	!LO:TX:a:i:t=Allegretto:mod=	!	!	!	!	!	!LO:TX:a:i:t=Allegro:mod=	!	!	!	!	!	!LO:TX:a:i:t=Allegretto:mod=	!	!	!	!	!	!LO:TX:a:i:t=Allegretto:mod=	!	!	!	!	!	!LO:TX:a:i:rj:t=Allegretto in F:mod=	!LO:TX:a:i:rj:t=Allegro in F:mod=
8F\L	.	.	4a/	p	4cc\	p	1r	.	.	.	.	.	1r	.	.	.	.	.	4a\	Lau-	Lau-	Be-	Be-	.	4cc\	Lau-	Lau-	Be-	Be-	.	1r	1r
!	!	!LO:DY:t=p.:mod=	!	!	!	!	!	!	!	!	!	!	!	!	!	!	!	!	!	!	!	!	!	!	!	!	!	!	!	!	!	!
!	!	!LO:MO:null:mod=.	!	!	!	!	!	!	!	!	!	!	!	!	!	!	!	!	!	!	!	!	!	!	!	!	!	!	!	!	!	!
8F\	.	p	.	.	.	.	.	.	.	.	.	.	.	.	.	.	.	.	.	.	.	.	.	.	.	.	.	.	.	.	.	.
8F\	.	.	16f/LL	.	16a/LL	.	.	.	.	.	.	.	.	.	.	.	.	.	16f\LL	-da-	-da-	-a-	-a-	.	16a\LL	-da-	-da-	-a-	-a-	.	.	.
.	.	.	16e/	.	16g/	.	.	.	.	.	.	.	.	.	.	.	.	.	16e\JJ	.	.	.	.	.	16g\JJ	.	.	.	.	.	.	.
8F\J	.	.	16f/	.	16a/	.	.	.	.	.	.	.	.	.	.	.	.	.	16f\LL	-te	-te	-ti	-ti	.	16a\LL	-te	-te	-ti	-ti	.	.	.
.	.	.	16g/JJ	.	16b-/JJ	.	.	.	.	.	.	.	.	.	.	.	.	.	16g\JJ	.	.	.	.	.	16b-\JJ	.	.	.	.	.	.	.
=2	=2	=2	=2	=2	=2	=2	=2	=2	=2	=2	=2	=2	=2	=2	=2	=2	=2	=2	=2	=2	=2	=2	=2	=2	=2	=2	=2	=2	=2	=2	=2	=2
!LO:TX:t=P:problem=mixed beam	!	!	!	!	!	!	!	!	!	!	!	!	!	!	!	!	!	!	!	!	!	!	!	!	!	!	!	!	!	!	!	!
8F\L	.	.	16a/LL	.	16cc\LL	.	.	.	.	.	.	.	.	.	.	.	.	.	16a\LL	Do-	Do-	o-	o-	.	16cc\LL	Do-	Do-	o-	o-	.	.	.
.	.	.	16b-/	.	16dd\	.	.	.	.	.	.	.	.	.	.	.	.	.	16b-\JJ	.	.	.	.	.	16dd\JJ	.	.	.	.	.	.	.
8FF/	.	.	16a/	.	16cc\	.	.	.	.	.	.	.	.	.	.	.	.	.	16a\LL	-mi-	-mi-	.	.	.	16cc\LL	-mi-	-mi-	.	.	.	.	.
.	.	.	16g/JJ	.	16b-\JJ	.	.	.	.	.	.	.	.	.	.	.	.	.	16g\JJ	-num	-num	.	.	.	16b-\JJ	-num	-num	.	.	.	.	.
8F\J	.	.	8f/L	.	8a\L	.	.	.	.	.	.	.	.	.	.	.	.	.	8f\	.	.	-mnes	-mnes	.	8a\	.	.	-mnes	-mnes	.	.	.
!	!	!	!	!	!	!LO:DY:a:t=f.	!	!	!	!	!	!	!	!	!	!	!	!	!	!	!	!	!	!	!	!	!	!	!	!	!	!
!	!	!	!	!	!	!LO:MO:null:mod=.	!	!	!	!	!	!	!	!	!	!	!	!	!	!	!	!	!	!	!	!	!	!	!	!	!	!
8r	.	.	8a/J	.	8cc\J	f	.	.	.	.	.	.	.	.	.	.	.	.	8r	.	.	.	.	.	8r	.	.	.	.	.	.	.
=3	=3	=3	=3	=3	=3	=3	=3	=3	=3	=3	=3	=3	=3	=3	=3	=3	=3	=3	=3	=3	=3	=3	=3	=3	=3	=3	=3	=3	=3	=3	=3	=3
*	*	*	*	*	*	*	*	*	*	*	*	*	*^	*	*	*	*	*	*	*	*	*	*	*	*	*	*	*	*	*	*	*
*	*	*	*	*	*	*	*^	*	*	*	*	*	*	*	*	*	*	*	*	*	*	*	*	*	*	*	*	*	*	*	*	*	*
!	!	!	!	!	!	!	!	!	!	!	!	!	!LO:MO:null:mod=!LO&colon;DY&colon;ed=brack	!	!	!	!	!	!	!LO:MO:null:mod=!LO&colon;DY&colon;ed=brack	!	!	!	!	!	!	!	!	!	!	!	!	!	!
!	!	!	!	!	!	!	!	!	!	!	!	!	!	!	!	!	!	!	!	!	!	!	!	!	!	!	!	!	!	!	!	!	!	!
!	!	!LO:DY:a:t=f.	!	!LO:DY:a:rj:t=f.	!	!LO:MO:null:mod=f	!	!LO:MO:mod=4F@	!	!	!	!	!LO:MO:null:mod=f	!	!LO:MO:mod=4c@	!	!	!	!	!LO:MO:null:mod=f	!	!	!	!	!	!LO:DY:a:rj:t=for.	!	!	!	!	!	!LO:DY:a:t=for	!	!
8F\L	.	f	8.a/L	f	8.cc\L	.	4.F\	2ryy	O-	O-	qui ti-	qui	.	4.c\	2ryy	O-	O-	qui	qui	.	4a\	om-	om-	qui	qui	f	4cc\	o-	o-	qui	qui	f	4ff\	4aa\
8F\	.	.	.	.	.	.	.	.	.	.	.	.	.	.	.	.	.	.	.	.	.	.	.	.	.	.	.	.	.	.	.	.	.	.
.	.	.	32g/LL	.	32b-\LL	.	.	.	.	.	.	.	.	.	.	.	.	.	.	.	.	.	.	.	.	.	.	.	.	.	.	.	.	.
.	.	.	32a/JJJ	.	32cc\JJJ	.	.	.	.	.	.	.	.	.	.	.	.	.	.	.	.	.	.	.	.	.	.	.	.	.	.	.	.	.
!	!	!	!	!	!	!	!	!LO:MO:null:mod=8F@	!	!	!	!	!	!	!LO:MO:null:mod=8c@	!	!	!	!	!	!	!	!	!	!	!	!	!	!	!	!	!	!	!
8F\	.	.	16b-/LL	.	16dd\LL	.	.	.	.	.	.	ti-	.	.	.	.	.	.	ti-	.	16b-\LL	.	.	ti-	ti-	.	16dd\LL	-mnes	-mnes	ti-	ti-	.	4ff\	4aa\
.	.	.	16a/	.	16cc\	.	.	.	.	.	.	.	.	.	.	.	.	.	.	.	16a\JJ	.	.	-met	-met	.	16cc\JJ	.	.	-met	-met	.	.	.
!	!	!	!	!	!	!	!	!LO:MO:null:mod=8F@	!	!	!	!	!	!	!LO:MO:null:mod=8c@	!	!	!	!	!	!	!	!	!	!	!	!	!	!	!	!	!	!	!
8F\J	.	.	16g/	.	16b-\	.	8F\	.	-mnes	-mnes	-met	-met	.	8c\	.	-mnes	-mnes	timet	-met	.	16g\LL	-nes	-nes	Do-	Do-	.	16b-\LL	.	.	Do-	Do-	.	.	.
.	.	.	16f/JJ	.	16a\JJ	.	.	.	.	.	.	.	.	.	.	.	.	.	.	.	16f\JJ	.	.	.	.	.	16a\JJ	.	.	.	.	.	.	.
=4	=4	=4	=4	=4	=4	=4	=4	=4	=4	=4	=4	=4	=4	=4	=4	=4	=4	=4	=4	=4	=4	=4	=4	=4	=4	=4	=4	=4	=4	=4	=4	=4	=4	=4
!LO:TX:t=P:problem=mixed beam	!	!	!	!	!	!	!	!LO:MO:mod=8.c@	!	!	!	!	!	!	!LO:MO:mod=8.c@	!	!	!	!	!	!	!	!	!	!	!	!	!	!	!	!	!	!	!
8c\L	4	.	8.f/L	.	8.a/L	.	4c\	2ryy	gen-	gen-	Domi-	Do-	.	4c\	2ryy	Gen-	Gen-	Domi-	Do-	.	4f\	Gen-	Gen-	-mi-	-mi-	.	4a\	Gen-	Gen-	-mi-	-mi-	.	4ff\	4aa\
8c\	3	.	.	.	.	.	.	.	.	.	.	.	.	.	.	.	.	.	.	.	.	.	.	.	.	.	.	.	.	.	.	.	.	.
!	!	!	!	!	!	!	!	!LO:MO:null:mod=16C@	!	!	!	!	!	!	!LO:MO:null:mod=16c@	!	!	!	!	!	!	!	!	!	!	!	!	!	!	!	!	!	!	!
.	.	.	32e/LL	.	32b-/LL	.	.	.	.	.	.	-mi-	.	.	.	.	.	.	-mi-	.	.	.	.	.	.	.	.	.	.	.	.	.	.	.
.	.	.	32f/JJJ	.	32a/JJJ	.	.	.	.	.	.	.	.	.	.	.	.	.	.	.	.	.	.	.	.	.	.	.	.	.	.	.	.	.
!	!	!	!	!	!LO:LB:g=original	!	!	!LO:MO:null:mod=8C@	!	!	!	!	!	!	!LO:MO:null:mod=8c@	!	!	!	!	!	!	!	!	!	!	!	!	!	!	!	!	!	!	!
8C/J	.	.	16e/LL	.	16g/LL	.	8C/	.	-tes	-tes	-num	-num	.	8c\	.	-tes	-tes	-num	-num	.	8e\	-tes	-tes	-num	-num	.	8g\	-tes	-tes	-num	-num	.	8cc/	8gg\
!	!	!	!	!	!LO:SIC:v:s=16f	!	!	!	!	!	!	!	!	!	!	!	!	!	!	!	!	!	!	!	!	!	!	!	!	!	!	!	!	!
.	.	.	16d/	.	16e/	.	.	.	.	.	.	.	.	.	.	.	.	.	.	.	.	.	.	.	.	.	.	.	.	.	.	.	.	.
!	!	!	!	!	!LO:SIC:v:s=16g	!	!	!LO:MO:null:mod=8ryy	!	!	!	!	!	!	!LO:MO:null:mod=8ryy	!	!	!	!	!	!	!	!	!	!	!	!	!	!	!	!	!	!	!
8r	.	.	16e/	.	16f/	.	8r	.	.	.	.	.	.	8r	.	.	.	.	.	.	8r	.	.	.	.	.	8r	.	.	.	.	.	8r	8r
!	!	!	!	!	!LO:SIC:v:s=16aJJ	!	!	!	!	!	!	!	!	!	!	!	!	!	!	!	!	!	!	!	!	!	!	!	!	!	!	!	!	!
.	.	.	16f/JJ	.	16g/JJ	.	.	.	.	.	.	.	.	.	.	.	.	.	.	.	.	.	.	.	.	.	.	.	.	.	.	.	.	.
!	!	!	!LO:LB:g=original	!	!	!	!	!	!	!	!	!	!	!	!	!	!	!	!	!	!LO:LB:g=original	!	!	!	!	!	!LO:LB:g=original	!	!	!	!	!	!	!
*	*	*	*	*	*	*	*v	*v	*	*	*	*	*	*	*	*	*	*	*	*	*	*	*	*	*	*	*	*	*	*	*	*	*	*
*	*	*	*	*	*	*	*	*	*	*	*	*	*v	*v	*	*	*	*	*	*	*	*	*	*	*	*	*	*	*	*	*	*	*
=5	=5	=5	=5	=5	=5	=5	=5	=5	=5	=5	=5	=5	=5	=5	=5	=5	=5	=5	=5	=5	=5	=5	=5	=5	=5	=5	=5	=5	=5	=5	=5	=5
!	!	!	!	!	!	!	!	!	!	!	!	!	!	!	!	!	!	!	!LO:MO:null:mod=!LO&colon;TX&colon;i&colon;t=Solo	!	!	!	!	!	!LO:MO:null:mod=!LO&colon;TX&colon;i&colon;t=Solo	!	!	!	!	!	!	!
!	!	!LO:DY:a:rj:t=p.	!	!LO:DY:a:rj:t=p.	!	!LO:DY:a:t=p.	!	!	!	!	!	!	!	!	!	!	!	!	!	!	!	!	!	!	!	!	!	!	!	!	!	!
8C/L	.	p	4g/	p	4b-\	p	1r	.	.	.	.	.	1r	.	.	.	.	.	4g\	Lau-	Lau-	qui	qui	.	4b-\	Lau-	Lau-	qui	qui	.	1r	1r
!	!	!	!	!	!	!	!	!	!	!	!	!	!	!	!	!	!	!	!LO:MO:mod=!null:null	!	!	!	!	!	!LO:MO:mod=!null:null	!	!	!	!	!	!	!
!	!	!	!	!	!	!	!	!	!	!	!	!	!	!	!	!	!	!	!LO:TX:a:i:t=Solo	!	!	!	!	!	!LO:TX:a:i:t=Solo	!	!	!	!	!	!	!
8C/	.	.	.	.	.	.	.	.	.	.	.	.	.	.	.	.	.	.	.	.	.	.	.	.	.	.	.	.	.	.	.	.
8C/	.	.	16e/LL	.	16g/LL	.	.	.	.	.	.	.	.	.	.	.	.	.	16e\LL	-da-	-da-	ti-	ti-	.	16g\LL	-da-	-da-	ti-	ti-	.	.	.
.	.	.	16d/	.	16f/	.	.	.	.	.	.	.	.	.	.	.	.	.	16d\JJ	.	.	.	.	.	16f\JJ	.	.	.	.	.	.	.
8C/J	.	.	16e/	.	16g/	.	.	.	.	.	.	.	.	.	.	.	.	.	16e\LL	-te	-te	-met	-met	.	16g\LL	-te	-te	-met	-met	.	.	.
.	.	.	16f/JJ	.	16a/JJ	.	.	.	.	.	.	.	.	.	.	.	.	.	16f\JJ	.	.	.	.	.	16a\JJ	.	.	.	.	.	.	.
=6	=6	=6	=6	=6	=6	=6	=6	=6	=6	=6	=6	=6	=6	=6	=6	=6	=6	=6	=6	=6	=6	=6	=6	=6	=6	=6	=6	=6	=6	=6	=6	=6
!LO:TX:t=P:problem=mixed beam	!	!	!	!	!	!	!	!	!	!	!	!	!	!	!	!	!	!	!	!	!	!	!	!	!	!	!	!	!	!	!	!
8C/L	.	.	16g/LL	.	16b-/LL	.	.	.	.	.	.	.	.	.	.	.	.	.	16g\LL	e-	e-	o-	o-	.	16b-\LL	Do-	Do-	o-	o-	.	.	.
.	.	.	16a/	.	16cc/	.	.	.	.	.	.	.	.	.	.	.	.	.	16a\	.	.	.	.	.	16cc\	.	.	.	.	.	.	.
8c\	.	.	16g/	.	16b-/	.	.	.	.	.	.	.	.	.	.	.	.	.	16g\	.	.	.	.	.	16b-\	-mi-	-mi-	.	.	.	.	.
.	.	.	16f/JJ	.	16a/JJ	.	.	.	.	.	.	.	.	.	.	.	.	.	16f\JJ	.	.	.	.	.	16a\JJ	.	.	.	.	.	.	.
8C/J	.	.	8e/L	.	8g/L	.	.	.	.	.	.	.	.	.	.	.	.	.	8e\	-um	-um	-mnes	-mnes	.	8g\	-num	-num	-mnes	-mnes	.	.	.
8r	.	.	8g/J	.	8b-/J	.	.	.	.	.	.	.	.	.	.	.	.	.	8r	.	.	.	.	.	8r	.	.	.	.	.	.	.
=7	=7	=7	=7	=7	=7	=7	=7	=7	=7	=7	=7	=7	=7	=7	=7	=7	=7	=7	=7	=7	=7	=7	=7	=7	=7	=7	=7	=7	=7	=7	=7	=7
*	*	*	*	*	*	*	*	*	*	*	*	*	*^	*	*	*	*	*	*	*	*	*	*	*	*	*	*	*	*	*	*	*
*	*	*	*	*	*	*	*^	*	*	*	*	*	*	*	*	*	*	*	*	*	*	*	*	*	*	*	*	*	*	*	*	*	*
!	!	!	!	!	!	!	!	!	!	!	!	!	!	!	!	!	!	!	!	!	!	!	!	!	!	!	!LO:MO:null:mod=!LO&colon;TX&colon;i&colon;t=Tutti	!	!	!	!	!	!	!
!	!	!LO:DY:a:rj:t=f.	!	!LO:DY:a:rj:t=f.	!	!LO:DY:a:rj:t=f.	!	!LO:MO:mod=4C@	!	!	!	!	!	!	!LO:MO:mod=4c@	!	!	!	!	!	!LO:TX:a:i:rj:t=Tutti	!	!	!	!	!	!	!	!	!	!	!	!	!
8C/L	.	f	8.g/L	f	8.b-/L	f	4.C/	2ryy	O-	O-	qui	qui	.	4.c\	2ryy	O-	O-	qui	qui	.	4g\	om-	om-	qui	qui	.	4b-\	om-	om-	qui	qui	.	4cc/	4gg\
8C/	.	.	.	.	.	.	.	.	.	.	.	.	.	.	.	.	.	.	.	.	.	.	.	.	.	.	.	.	.	.	.	.	.	.
.	.	.	32f/LL	.	32cc/LL	.	.	.	.	.	.	.	.	.	.	.	.	.	.	.	.	.	.	.	.	.	.	.	.	.	.	.	.	.
.	.	.	32g/JJJ	.	32b-/JJJ	.	.	.	.	.	.	.	.	.	.	.	.	.	.	.	.	.	.	.	.	.	.	.	.	.	.	.	.	.
!	!	!	!	!	!	!	!	!LO:MO:null:mod=8C@	!	!	!	!	!	!	!LO:MO:null:mod=8c@	!	!	!	!	!	!	!	!	!	!	!	!	!	!	!	!	!	!	!
8C/	.	.	16a/LL	.	16cc/LL	.	.	.	.	.	.	ti-	.	.	.	.	.	.	ti-	.	16a\LL	.	.	ti-	ti-	.	16cc\LL	.	.	ti-	ti-	.	4cc/	4gg\
.	.	.	16g/	.	16b-/	.	.	.	.	.	.	.	.	.	.	.	.	.	.	.	16g\JJ	.	.	.	.	.	16b-\JJ	.	.	.	.	.	.	.
!	!	!	!	!	!	!	!	!LO:MO:null:mod=8C@	!	!	!	!	!	!	!LO:MO:null:mod=8c	!	!	!	!	!	!	!	!	!	!	!	!	!	!	!	!	!	!	!
8C/J	.	.	16f/	.	16a/	.	8C/	.	-mnes	-mnes	-ti-	-met	.	8c\	.	-mnes	-mnes	-ti-	-met	.	16f\LL	-nes	-nes	-met	-met	.	16a\LL	-nes	-nes	-met	-met	.	.	.
.	.	.	16e/JJ	.	16g/JJ	.	.	.	.	.	.	.	.	.	.	.	.	.	.	.	16e\JJ	.	.	.	.	.	16g\JJ	.	.	.	.	.	.	.
*	*	*	*	*	*	*	*v	*v	*	*	*	*	*	*	*	*	*	*	*	*	*	*	*	*	*	*	*	*	*	*	*	*	*	*
*	*	*	*	*	*	*	*	*	*	*	*	*	*v	*v	*	*	*	*	*	*	*	*	*	*	*	*	*	*	*	*	*	*	*
=8	=8	=8	=8	=8	=8	=8	=8	=8	=8	=8	=8	=8	=8	=8	=8	=8	=8	=8	=8	=8	=8	=8	=8	=8	=8	=8	=8	=8	=8	=8	=8	=8
!LO:TX:t=P:problem=mixed beam	!	!	!	!	!	!	!	!	!	!	!	!	!	!	!	!	!	!	!	!	!	!	!	!	!	!	!	!	!	!	!	!
8F\L	.	.	16f/LL	.	16a/LL	.	8.F\	po-	po-	-met	Do-	.	8.c\	po-	po-	-met	Do-	.	8.f\	po-	po-	Do-	Do-	.	8.a\	po-	po-	Do-	Do-	.	8a/L	8ff\L
.	.	.	16e/	.	16g/	.	.	.	.	.	.	.	.	.	.	.	.	.	.	.	.	.	.	.	.	.	.	.	.	.	.	.
8FF/	.	.	16f/	.	16a/	.	.	.	.	.	.	.	.	.	.	.	.	.	.	.	.	.	.	.	.	.	.	.	.	.	8a/	8ff\
.	.	.	16g/JJ	.	16b-/JJ	.	16F\	-pu-	-pu-	Domi-	-mi-	.	16c\	-pu-	-pu-	Domi-	-mi-	.	16g\	-pu-	-pu-	-mi-	-mi-	.	16b-\	-pu-	-pu-	-mi-	-mi-	.	.	.
8F\J	.	.	16a\LL	.	16cc\LL	.	8F\	-li	-li	-num	-num	.	8c\	-li	-li	-num	-num	.	8a\	-li	-li	-num	-num	.	8cc\	-li	-li	-num	-num	.	8a/J	8ff\J
.	.	.	16b-\	.	16dd\	.	.	.	.	.	.	.	.	.	.	.	.	.	.	.	.	.	.	.	.	.	.	.	.	.	.	.
8r	.	.	16cc\	.	16ee\	.	8r	.	.	.	.	.	8r	.	.	.	.	.	8r	.	.	.	.	.	8r	.	.	.	.	.	8r	8r
.	.	.	16a\JJ	.	16ff\JJ	.	.	.	.	.	.	.	.	.	.	.	.	.	.	.	.	.	.	.	.	.	.	.	.	.	.	.
!LO:LB:g=original	!	!	!	!	!	!	!LO:LB:g=original	!	!	!	!	!	!LO:LB:g=original	!	!	!	!	!	!	!	!	!	!	!	!LO:LB:g=original	!	!	!	!	!	!	!LO:LB:g=original
=9	=9	=9	=9	=9	=9	=9	=9	=9	=9	=9	=9	=9	=9	=9	=9	=9	=9	=9	=9	=9	=9	=9	=9	=9	=9	=9	=9	=9	=9	=9	=9	=9
!	!	!	!	!	!	!	!	!	!	!	!	!	!	!	!	!	!	!	!	!	!	!	!	!	!	!	!	!	!	!	!	!LO:MO:mod=*null:null
*	*	*	*	*	*	*	*	*	*	*	*	*	*	*	*	*	*	*	*	*	*	*	*	*	*	*	*	*	*	*	*	*2\right
8F\L	6_ 4_	.	4b-\	.	4dd\	.	4F\	Lau-	Lau-	qui	qui	.	4f\	Lau-	Lau-	qui	qui	.	4b-\	Lau-	Lau-	qui	qui	.	4dd\	Lau-	Lau-	qui	qui	.	2f/	2ff\
8F\	.	.	.	.	.	.	.	.	.	.	.	.	.	.	.	.	.	.	.	.	.	.	.	.	.	.	.	.	.	.	.	.
8F\	.	.	16b-\LL	.	16dd\LL	.	8F\	-da-	-da-	am-	am-	.	8f\	-da-	-da-	am-	am-	.	8b-\	-da-	-da-	am-	am-	.	8dd\	-da-	-da-	am-	am-	.	.	.
.	.	.	16cc\	.	16ee\	.	.	.	.	.	.	.	.	.	.	.	.	.	.	.	.	.	.	.	.	.	.	.	.	.	.	.
8F\J	.	.	16dd\	.	16ff\	.	8F\	-te	-te	-bu-	-bu-	.	8f\	-te	-te	-bu-	-bu-	.	8b-\	-te	-te	-bu-	-bu-	.	8dd\	-te	-te	-bu-	-bu-	.	.	.
.	X X	.	16b-\JJ	.	16dd\JJ	.	.	.	.	.	.	.	.	.	.	.	.	.	.	.	.	.	.	.	.	.	.	.	.	.	.	.
!	!	!	!	!	!LO:LB:g=original	!	!	!	!	!	!	!	!	!	!	!	!	!	!LO:LB:g=original	!	!	!	!	!	!	!	!	!	!	!	!LO:LB:g=original	!
=10	=10	=10	=10	=10	=10	=10	=10	=10	=10	=10	=10	=10	=10	=10	=10	=10	=10	=10	=10	=10	=10	=10	=10	=10	=10	=10	=10	=10	=10	=10	=10	=10
*tremolo	*	*	*	*	*	*	*	*	*	*	*	*	*	*	*	*	*	*	*	*	*	*	*	*	*	*	*	*	*	*	*	*
!LO:MO:mod=*null:null	!	!	!	!	!	!	!	!	!	!	!	!	!	!	!	!	!	!	!	!	!	!	!	!	!	!	!	!	!	!	!	!
*2\right	*	*	*	*	*	*	*	*	*	*	*	*	*	*	*	*	*	*	*	*	*	*	*	*	*	*	*	*	*	*	*	*
!	!	!	!	!	!	!	!	!	!	!	!	!	!	!	!	!	!	!	!	!	!	!LO:MO:mod=-lat	!LO:MO:mod=-lat	!	!	!	!	!LO:MO:mod=-lat	!LO:MO:mod=-lat	!	!	!
8F\L	3	.	16b-/LL	.	16dd\LL	.	8.F\	Do-	Do-	-tat	-lat	.	8.f\	Do-	Do-	-tat	-lat	.	8.a\	Do-	Do-	-tat	-tat	.	8.cc\	Do-	Do-	-tat	-tat	.	2f/	2ff\
.	.	.	16a/	.	16cc\	.	.	.	.	.	.	.	.	.	.	.	.	.	.	.	.	.	.	.	.	.	.	.	.	.	.	.
8F\	.	.	16g/	.	16b-\	.	.	.	.	.	.	.	.	.	.	.	.	.	.	.	.	.	.	.	.	.	.	.	.	.	.	.
.	.	.	16a/JJ	.	16cc\JJ	.	16F\	-mi-	-mi-	in	in	.	16f\	-mi-	-mi-	in	in	.	16a\	-mi-	-mi-	in	in	.	16cc\	-mi-	-mi-	in	in	.	.	.
8F\	.	.	8a/L	.	16ff\LL	.	4F\	-num	-num	vi-	vi-	.	4f\	-num	-num	vi-	vi-	.	4a\	-num	-num	vi-	vi-	.	4cc\	-num	-num	vi-	vi-	.	.	.
.	.	.	.	.	16ee\	.	.	.	.	.	.	.	.	.	.	.	.	.	.	.	.	.	.	.	.	.	.	.	.	.	.	.
8F\J	.	.	8a/J	.	16dd\	.	.	.	.	.	.	.	.	.	.	.	.	.	.	.	.	.	.	.	.	.	.	.	.	.	.	.
.	.	.	.	.	16cc\JJ	.	.	.	.	.	.	.	.	.	.	.	.	.	.	.	.	.	.	.	.	.	.	.	.	.	.	.
=11	=11	=11	=11	=11	=11	=11	=11	=11	=11	=11	=11	=11	=11	=11	=11	=11	=11	=11	=11	=11	=11	=11	=11	=11	=11	=11	=11	=11	=11	=11	=11	=11
8F\L	6 4	.	4b-\	.	4dd\	.	4F\	O-	O-	-is	-is	.	4f\	O-	O-	-is	-is	.	4b-\	o-	o-	-is	-is	.	4dd\	o-	o-	-is	-is	.	2f/	2ff\
8F\	.	.	.	.	.	.	.	.	.	.	.	.	.	.	.	.	.	.	.	.	.	.	.	.	.	.	.	.	.	.	.	.
8F\	.	.	16b-\LL	.	16dd\LL	.	4F\	-mnes	-mnes	e-	e-	.	4f\	-mnes	-mnes	e-	e-	.	4b-\	-mnes	-mnes	e-	e-	.	4dd\	-mnes	-mnes	e-	e-	.	.	.
.	.	.	16cc\	.	16ee\	.	.	.	.	.	.	.	.	.	.	.	.	.	.	.	.	.	.	.	.	.	.	.	.	.	.	.
8F\J	.	.	16dd\	.	16ff\	.	.	.	.	.	.	.	.	.	.	.	.	.	.	.	.	.	.	.	.	.	.	.	.	.	.	.
.	.	.	16b-\JJ	.	16dd\JJ	.	.	.	.	.	.	.	.	.	.	.	.	.	.	.	.	.	.	.	.	.	.	.	.	.	.	.
!	!	!	!LO:LB:g=original	!	!	!	!	!	!	!	!	!	!	!	!	!	!	!	!	!	!	!	!	!	!	!	!	!	!	!	!	!
=12	=12	=12	=12	=12	=12	=12	=12	=12	=12	=12	=12	=12	=12	=12	=12	=12	=12	=12	=12	=12	=12	=12	=12	=12	=12	=12	=12	=12	=12	=12	=12	=12
8F\L	3	.	16b-/LL	.	16dd\LL	.	4F\	gen-	gen-	-ius	-ius	.	4f\	gen-	gen-	-ius	-ius	.	4a\	gen-	gen-	-ius	-ius	.	4cc\	gen-	gen-	-ius	-ius	.	2f/	2ff\
.	.	.	16a/	.	16cc\	.	.	.	.	.	.	.	.	.	.	.	.	.	.	.	.	.	.	.	.	.	.	.	.	.	.	.
8F\	.	.	16g/	.	16b-\	.	.	.	.	.	.	.	.	.	.	.	.	.	.	.	.	.	.	.	.	.	.	.	.	.	.	.
.	.	.	16a/JJ	.	16cc\JJ	.	.	.	.	.	.	.	.	.	.	.	.	.	.	.	.	.	.	.	.	.	.	.	.	.	.	.
8F\	.	.	8a/L	.	16ff\LL	.	4F\	-tes	-tes	qui	qui	.	4f\	-tes	-tes	qui	qui	.	4a\	-tes	-tes	qui	qui	.	4cc\	-tes	-tes	qui	qui	.	.	.
.	.	.	.	.	16ee\	.	.	.	.	.	.	.	.	.	.	.	.	.	.	.	.	.	.	.	.	.	.	.	.	.	.	.
8F\J	.	.	8a/J	.	16dd\	.	.	.	.	.	.	.	.	.	.	.	.	.	.	.	.	.	.	.	.	.	.	.	.	.	.	.
.	.	.	.	.	16cc\JJ	.	.	.	.	.	.	.	.	.	.	.	.	.	.	.	.	.	.	.	.	.	.	.	.	.	.	.
*Xtremolo	*	*	*	*	*	*	*	*	*	*	*	*	*	*	*	*	*	*	*	*	*	*	*	*	*	*	*	*	*	*	*	*
=13	=13	=13	=13	=13	=13	=13	=13	=13	=13	=13	=13	=13	=13	=13	=13	=13	=13	=13	=13	=13	=13	=13	=13	=13	=13	=13	=13	=13	=13	=13	=13	=13
8E\L	6 5	.	8g/L	.	16b-\LL	.	4E\	Lau-	Lau-	am-	am-	.	4g\	Lau-	Lau-	am-	am-	.	4b-\	Lau-	Lau-	am-	am-	.	4cc\	Lau-	Lau-	am-	am-	.	2cc/	2gg\
.	.	.	.	.	16cc\	.	.	.	.	.	.	.	.	.	.	.	.	.	.	.	.	.	.	.	.	.	.	.	.	.	.	.
8E\	.	.	8g/	.	16dd\	.	.	.	.	.	.	.	.	.	.	.	.	.	.	.	.	.	.	.	.	.	.	.	.	.	.	.
.	.	.	.	.	16ee\JJ	.	.	.	.	.	.	.	.	.	.	.	.	.	.	.	.	.	.	.	.	.	.	.	.	.	.	.
8E\	.	.	8g/	.	16gg\LL	.	8E\	-da-	-da-	-bu-	-bu-	.	8g\	-da-	-da-	-bu-	-bu-	.	8b-\	-da-	-da-	-bu-	-bu-	.	8cc\	-da-	-da-	-bu-	-bu-	.	.	.
.	.	.	.	.	16ee\	.	.	.	.	.	.	.	.	.	.	.	.	.	.	.	.	.	.	.	.	.	.	.	.	.	.	.
8E\J	.	.	8g/J	.	16cc\	.	8E\	-te	-te	-lat	-lat	.	8g\	-te	-te	-lat	-lat	.	8b-\	-te	-te	-lat	-lat	.	8cc\	-te	-te	-lat	-lat	.	.	.
.	.	.	.	.	16b-\JJ	.	.	.	.	.	.	.	.	.	.	.	.	.	.	.	.	.	.	.	.	.	.	.	.	.	.	.
=14	=14	=14	=14	=14	=14	=14	=14	=14	=14	=14	=14	=14	=14	=14	=14	=14	=14	=14	=14	=14	=14	=14	=14	=14	=14	=14	=14	=14	=14	=14	=14	=14
!	!	!	!	!	!	!	!	!	!	!	!	!	!	!	!	!	!	!	!	!	!	!	!	!	!	!	!	!	!	!	!LO:MO:mod=*null:null	!
*	*	*	*	*	*	*	*	*	*	*	*	*	*	*	*	*	*	*	*	*	*	*	*	*	*	*	*	*	*	*	*2\right	*
8F\L	.	.	8f/L	.	16a\LL	.	4F\	e-	e-	in	in	.	4f\	e-	e-	in	in	.	4a\	e-	e-	in	in	.	4cc\	e-	e-	in	in	.	2ff\	2aa\
.	.	.	.	.	16cc\	.	.	.	.	.	.	.	.	.	.	.	.	.	.	.	.	.	.	.	.	.	.	.	.	.	.	.
8F\	.	.	8f/	.	16ff\	.	.	.	.	.	.	.	.	.	.	.	.	.	.	.	.	.	.	.	.	.	.	.	.	.	.	.
.	.	.	.	.	16gg\JJ	.	.	.	.	.	.	.	.	.	.	.	.	.	.	.	.	.	.	.	.	.	.	.	.	.	.	.
8F\	.	.	8f/	.	16aa\LL	.	4F\	-um	-um	vi-	vi-	.	4f\	-um	-um	vi-	vi-	.	4a\	-um	-um	vi-	vi-	.	4ff\	-um	-um	vi-	vi-	.	.	.
.	.	.	.	.	16ff\	.	.	.	.	.	.	.	.	.	.	.	.	.	.	.	.	.	.	.	.	.	.	.	.	.	.	.
8F\J	.	.	8f/J	.	16cc\	.	.	.	.	.	.	.	.	.	.	.	.	.	.	.	.	.	.	.	.	.	.	.	.	.	.	.
.	.	.	.	.	16a\JJ	.	.	.	.	.	.	.	.	.	.	.	.	.	.	.	.	.	.	.	.	.	.	.	.	.	.	.
!	!	!	!	!	!LO:LB:g=original	!	!LO:LB:g=original	!	!	!	!	!	!LO:LB:g=original	!	!	!	!	!	!	!	!	!	!	!	!LO:LB:g=original	!	!	!	!	!	!	!
=15	=15	=15	=15	=15	=15	=15	=15	=15	=15	=15	=15	=15	=15	=15	=15	=15	=15	=15	=15	=15	=15	=15	=15	=15	=15	=15	=15	=15	=15	=15	=15	=15
8B-\L	6	.	16a/LL	.	16cc\LL	.	4B-\	O-	O-	-is	-is	.	4d\	O-	O-	-is	-is	.	4b-\	o-	o-	-is	-is	.	4gg\	o-	o-	-is	-is	.	4gg\	4bb-\
.	.	.	16g/	.	16b-\	.	.	.	.	.	.	.	.	.	.	.	.	.	.	.	.	.	.	.	.	.	.	.	.	.	.	.
8B-\	.	.	16b-/	.	16dd\	.	.	.	.	.	.	.	.	.	.	.	.	.	.	.	.	.	.	.	.	.	.	.	.	.	.	.
.	.	.	16g/JJ	.	16b-\JJ	.	.	.	.	.	.	.	.	.	.	.	.	.	.	.	.	.	.	.	.	.	.	.	.	.	.	.
.	.	.	16qqg/	.	.	.	.	.	.	.	.	.	.	.	.	.	.	.	.	.	.	.	.	.	.	.	.	.	.	.	.	.
8Bn\	5	.	8f/L	.	16b-/LL	.	4Bn\	-mnes	-mnes	e-	e-	.	4d\	-mnes	-mnes	e-	e-	.	4a\	-mnes	-mnes	e-	e-	.	4ff\	-mnes	-mnes	e-	e-	.	4ff\	4aa\
.	.	.	.	.	16a/	.	.	.	.	.	.	.	.	.	.	.	.	.	.	.	.	.	.	.	.	.	.	.	.	.	.	.
8B\J	.	.	16e/L	.	16g/	.	.	.	.	.	.	.	.	.	.	.	.	.	.	.	.	.	.	.	.	.	.	.	.	.	.	.
.	.	.	16f/JJ	.	16a/JJ	.	.	.	.	.	.	.	.	.	.	.	.	.	.	.	.	.	.	.	.	.	.	.	.	.	.	.
=16	=16	=16	=16	=16	=16	=16	=16	=16	=16	=16	=16	=16	=16	=16	=16	=16	=16	=16	=16	=16	=16	=16	=16	=16	=16	=16	=16	=16	=16	=16	=16	=16
!LO:TX:t=P:problem=mixed beam	!	!	!	!	!	!	!	!	!	!	!	!	!	!	!	!	!	!	!	!	!	!	!	!	!	!	!	!	!	!	!	!
8c\L	4	.	8.f/L	.	8.a/L	.	8.c\	po-	po-	.	.	.	8.c\	po-	po-	.	.	.	8.a\	po-	po-	.	.	.	8.ff\	po-	po-	.	.	.	4ff\	4aa\
8c\	3	.	.	.	.	.	.	.	.	.	.	.	.	.	.	.	.	.	.	.	.	.	.	.	.	.	.	.	.	.	.	.
.	.	.	32e/LL	.	32g/LL	.	16C/	-pu-	-pu-	.	.	.	16c\	-pu-	-pu-	.	.	.	16a\	-pu-	-pu-	.	.	.	16ff\	-pu-	-pu-	.	.	.	.	.
.	.	.	32f/JJJ	.	32a/JJJ	.	.	.	.	.	.	.	.	.	.	.	.	.	.	.	.	.	.	.	.	.	.	.	.	.	.	.
8C/	.	.	8e/	.	8g/	.	8C/	-li	-li	-ius	-ius	.	8c\	-li	-li	-ius	-ius	.	8g\	-li	-li	-ius	-ius	.	8ee\	-li	-li	-ius	-ius	.	8cc/	8gg\
8C/J	.	.	8r	.	8r	.	8r	.	.	.	.	.	8r	.	.	.	.	.	8r	.	.	.	.	.	8r	.	.	.	.	.	8r	8r
!	!	!	!	!	!	!	!	!	!	!	!	!	!	!	!	!	!	!	!LO:LB:g=original	!	!	!	!	!	!	!	!	!	!	!	!	!
=17	=17	=17	=17	=17	=17	=17	=17	=17	=17	=17	=17	=17	=17	=17	=17	=17	=17	=17	=17	=17	=17	=17	=17	=17	=17	=17	=17	=17	=17	=17	=17	=17
8C/L	.	.	8e/L	.	8.g/L	.	4C/	Quo-	Quo-	La-	La-	.	4c\	Quo-	Quo-	La-	La-	.	4g\	Quo-	Quo-	La-	La-	.	4ee\	Quo-	Quo-	La-	La-	.	2c/	2cc/
8C/	.	.	8e/	.	.	.	.	.	.	.	.	.	.	.	.	.	.	.	.	.	.	.	.	.	.	.	.	.	.	.	.	.
.	.	.	.	.	32a/LL	.	.	.	.	.	.	.	.	.	.	.	.	.	.	.	.	.	.	.	.	.	.	.	.	.	.	.
.	.	.	.	.	32b-/JJJ	.	.	.	.	.	.	.	.	.	.	.	.	.	.	.	.	.	.	.	.	.	.	.	.	.	.	.
8C/	.	.	8e/	.	16cc\LL	.	8C/	-ni-	-ni-	-bo-	-bo-	.	8c\	-ni-	-ni-	-bo-	-bo-	.	8g\	-ni-	-ni-	-bo-	-bo-	.	8ee\	-ni-	-ni-	-bo-	-bo-	.	.	.
.	.	.	.	.	16dd\	.	.	.	.	.	.	.	.	.	.	.	.	.	.	.	.	.	.	.	.	.	.	.	.	.	.	.
8C/J	.	.	8e/J	.	16cc\	.	8C/	-am	-am	-res	-res	.	8c\	-am	-am	-res	-res	.	8g\	-am	-am	-res	-res	.	8ee\	-am	-am	-res	-res	.	.	.
.	.	.	.	.	16b-\JJ	.	.	.	.	.	.	.	.	.	.	.	.	.	.	.	.	.	.	.	.	.	.	.	.	.	.	.
!LO:LB:g=original	!	!	!	!	!	!	!	!	!	!	!	!	!	!	!	!	!	!	!	!	!	!	!	!	!	!	!	!	!	!	!	!
=18	=18	=18	=18	=18	=18	=18	=18	=18	=18	=18	=18	=18	=18	=18	=18	=18	=18	=18	=18	=18	=18	=18	=18	=18	=18	=18	=18	=18	=18	=18	=18	=18
*tremolo	*	*	*	*	*	*	*	*	*	*	*	*	*	*	*	*	*	*	*	*	*	*	*	*	*	*	*	*	*	*	*	*
8C/L	6 4	.	8f/L	.	16b-/LL	.	4C/	Con-	Con-	ma-	ma-	.	4c\	Con-	Con-	ma-	ma-	.	4a\	Con-	Con-	ma-	ma-	.	4ff\	Con-	Con-	ma-	ma-	.	2c/	2cc/
.	.	.	.	.	(16a/	.	.	.	.	.	.	.	.	.	.	.	.	.	.	.	.	.	.	.	.	.	.	.	.	.	.	.
8C/	.	.	8f/	.	16g/	.	.	.	.	.	.	.	.	.	.	.	.	.	.	.	.	.	.	.	.	.	.	.	.	.	.	.
.	.	.	.	.	16a/JJ)	.	.	.	.	.	.	.	.	.	.	.	.	.	.	.	.	.	.	.	.	.	.	.	.	.	.	.
8C/	.	.	8f/	.	4a/	.	4C/	-fir-	-fir-	-nu-	-nu-	.	4c\	-fir-	-fir-	-nu-	-nu-	.	4a\	-fir-	-fir-	-nu-	-nu-	.	4ff\	-fir-	-fir-	-nu-	-nu-	.	.	.
8C/J	.	.	8f/J	.	.	.	.	.	.	.	.	.	.	.	.	.	.	.	.	.	.	.	.	.	.	.	.	.	.	.	.	.
*Xtremolo	*	*	*	*	*	*	*	*	*	*	*	*	*	*	*	*	*	*	*	*	*	*	*	*	*	*	*	*	*	*	*	*
!	!	!	!LO:LB:g=original	!	!	!	!	!	!	!	!	!	!	!	!	!	!	!	!	!	!	!	!	!	!	!	!	!	!	!	!	!
=19	=19	=19	=19	=19	=19	=19	=19	=19	=19	=19	=19	=19	=19	=19	=19	=19	=19	=19	=19	=19	=19	=19	=19	=19	=19	=19	=19	=19	=19	=19	=19	=19
8C/L	n7r 2	.	8d/L	.	8.bn\L	.	4C/	-ma-	-ma-	-um	-um	.	4c\	-ma-	-ma-	-um	-um	.	4bn\	-ma-	-ma-	-um	-um	.	4dd\	-ma-	-ma-	-um	-um	.	2c/	2cc/
8C/	.	.	8d/	.	.	.	.	.	.	.	.	.	.	.	.	.	.	.	.	.	.	.	.	.	.	.	.	.	.	.	.	.
.	.	.	.	.	(32cc\LL	.	.	.	.	.	.	.	.	.	.	.	.	.	.	.	.	.	.	.	.	.	.	.	.	.	.	.
.	.	.	.	.	32dd\JJJ)	.	.	.	.	.	.	.	.	.	.	.	.	.	.	.	.	.	.	.	.	.	.	.	.	.	.	.
8C/	.	.	8d/	.	16cc\LL	.	4C/	-ta	-ta	tu-	tu-	.	4c\	-ta	-ta	tu-	tu-	.	4b\	-ta	-ta	tu-	tu-	.	4dd\	-ta	-ta	tu-	tu-	.	.	.
.	.	.	.	.	(16b\	.	.	.	.	.	.	.	.	.	.	.	.	.	.	.	.	.	.	.	.	.	.	.	.	.	.	.
8C/J	.	.	8d/J	.	16a\	.	.	.	.	.	.	.	.	.	.	.	.	.	.	.	.	.	.	.	.	.	.	.	.	.	.	.
.	.	.	.	.	16b\JJ)	.	.	.	.	.	.	.	.	.	.	.	.	.	.	.	.	.	.	.	.	.	.	.	.	.	.	.
=20	=20	=20	=20	=20	=20	=20	=20	=20	=20	=20	=20	=20	=20	=20	=20	=20	=20	=20	=20	=20	=20	=20	=20	=20	=20	=20	=20	=20	=20	=20	=20	=20
8C/L	3	.	8e/L	.	16cc\LL	.	4C/	est	est	-a-	-a-	.	4c\	eſt	eſt	-a-	-a-	.	4cc\	est	est	-a-	-a-	.	4ee\	est	est	-a-	-a-	.	4c/	4cc/
.	.	.	.	.	16dd\	.	.	.	.	.	.	.	.	.	.	.	.	.	.	.	.	.	.	.	.	.	.	.	.	.	.	.
8C/	.	.	8e/J	.	16ee\	.	.	.	.	.	.	.	.	.	.	.	.	.	.	.	.	.	.	.	.	.	.	.	.	.	.	.
.	.	.	.	.	16dd\JJ	.	.	.	.	.	.	.	.	.	.	.	.	.	.	.	.	.	.	.	.	.	.	.	.	.	.	.
!	!	!	!	!	!	!	!	!	!	!	!	!	!	!	!	!	!	!	!	!	!	!	!	!	!	!	!	!	!	!	!	!LO:TX:t=P:problem=mixed beam
8C/	.	.	8e/L	.	8cc\L	.	4C/	su-	su-	-rum	-rum	.	4c\	Su-	Su-	-rum	-rum	.	4g\	su-	su-	-rum	-rum	.	4ee\	su-	su-	-rum	-rum	.	8c/L	8cc/L
8C/J	.	.	16c/L	.	16cc\L	.	.	.	.	.	.	.	.	.	.	.	.	.	.	.	.	.	.	.	.	.	.	.	.	.	8cc/J	8gg\J
.	.	.	16e/JJ	.	16ee\JJ	.	.	.	.	.	.	.	.	.	.	.	.	.	.	.	.	.	.	.	.	.	.	.	.	.	.	.
!	!	!	!	!	!LO:LB:g=original	!	!LO:LB:g=original	!	!	!	!	!	!LO:LB:g=original	!	!	!	!	!	!	!	!	!	!	!	!LO:LB:g=original	!	!	!	!	!	!	!LO:LB:g=original
=21	=21	=21	=21	=21	=21	=21	=21	=21	=21	=21	=21	=21	=21	=21	=21	=21	=21	=21	=21	=21	=21	=21	=21	=21	=21	=21	=21	=21	=21	=21	=21	=21
8BBn/L	6 5	.	(8.g/L	.	(8.gg\L	.	4BBn/	-per	-per	qui	qui	.	4d\	-per	-per	qui	qui	.	4g\	-per	-per	qui	qui	.	4ff\	-per	-per	qui	qui	.	2gg\	2gg\
8BB/	.	.	.	.	.	.	.	.	.	.	.	.	.	.	.	.	.	.	.	.	.	.	.	.	.	.	.	.	.	.	.	.
.	.	.	16f/Jk)	.	16ff\Jk)	.	.	.	.	.	.	.	.	.	.	.	.	.	.	.	.	.	.	.	.	.	.	.	.	.	.	.
8BB/	.	.	(16d/LL	.	16dd\LL	.	8BB/	nos	nos	man-	man-	.	8d\	nos	nos	man-	man-	.	8g\	nos	nos	man-	man-	.	8ff\	nos	nos	man-	man-	.	.	.
.	.	.	16e/)	.	16ee\	.	.	.	.	.	.	.	.	.	.	.	.	.	.	.	.	.	.	.	.	.	.	.	.	.	.	.
8BB/J	.	.	(16f/	.	16ff\	.	8BB/	mi-	mi-	-du-	-du-	.	8d\	mi-	mi-	-du-	-du-	.	8g\	mi-	mi-	-du-	-du-	.	8ff\	mi-	mi-	-du-	-du-	.	.	.
.	.	.	16d/JJ)	.	16dd\JJ	.	.	.	.	.	.	.	.	.	.	.	.	.	.	.	.	.	.	.	.	.	.	.	.	.	.	.
=22	=22	=22	=22	=22	=22	=22	=22	=22	=22	=22	=22	=22	=22	=22	=22	=22	=22	=22	=22	=22	=22	=22	=22	=22	=22	=22	=22	=22	=22	=22	=22	=22
8C/L	.	.	(16e/LL	.	16ee\LL	.	4C/	-ſe-	-ſe-	-ca-	-ca-	.	4c\	-ſe-	-ſe-	-ca-	-ca-	.	4g\	-se-	-se-	-ca-	-ca-	.	4ee\	-se-	-se-	-ca-	-ca-	.	2cc/	2gg\
.	.	.	16g/)	.	16gg\	.	.	.	.	.	.	.	.	.	.	.	.	.	.	.	.	.	.	.	.	.	.	.	.	.	.	.
8C/	.	.	(16a/	.	16aa\	.	.	.	.	.	.	.	.	.	.	.	.	.	.	.	.	.	.	.	.	.	.	.	.	.	.	.
.	.	.	16g/JJ)	.	16gg\JJ	.	.	.	.	.	.	.	.	.	.	.	.	.	.	.	.	.	.	.	.	.	.	.	.	.	.	.
8E/	6	.	16f/LL	.	16ff\LL	.	4E\	-ri-	-ri-	-bis	-bis	.	4c\	-ri-	-ri-	-bis	-bis	.	4g\	-ri-	-ri-	-bis	-bis	.	4ee\	-ri-	-ri-	-bis	-bis	.	.	.
.	.	.	16e/	.	16ee\	.	.	.	.	.	.	.	.	.	.	.	.	.	.	.	.	.	.	.	.	.	.	.	.	.	.	.
8E/J	.	.	16d/	.	16dd\	.	.	.	.	.	.	.	.	.	.	.	.	.	.	.	.	.	.	.	.	.	.	.	.	.	.	.
.	.	.	16c/JJ	.	16cc\JJ	.	.	.	.	.	.	.	.	.	.	.	.	.	.	.	.	.	.	.	.	.	.	.	.	.	.	.
!	!	!	!	!	!	!	!	!	!	!	!	!	!	!	!	!	!	!	!LO:PB:g=original	!	!	!	!	!	!	!	!	!	!	!	!LO:LB:g=original	!
=23	=23	=23	=23	=23	=23	=23	=23	=23	=23	=23	=23	=23	=23	=23	=23	=23	=23	=23	=23	=23	=23	=23	=23	=23	=23	=23	=23	=23	=23	=23	=23	=23
8G\L	n	.	(16c/LL	.	16cc\LL	.	4G\	-cor-	-cor-	Be-	Be-	.	4Bn\	-cor-	-cor-	Be-	Be-	.	4g\	-cor-	-cor-	Be-	Be-	.	4dd\	-cor-	-cor-	Be-	Be-	.	2gg\	2gg\
.	.	.	16Bn/)	.	16bn\	.	.	.	.	.	.	.	.	.	.	.	.	.	.	.	.	.	.	.	.	.	.	.	.	.	.	.
8G\	.	.	(16d/	.	16dd\	.	.	.	.	.	.	.	.	.	.	.	.	.	.	.	.	.	.	.	.	.	.	.	.	.	.	.
.	.	.	16B/JJ)	.	16b\JJ	.	.	.	.	.	.	.	.	.	.	.	.	.	.	.	.	.	.	.	.	.	.	.	.	.	.	.
8F\	.	.	8.G/L	.	8.g/L	.	8F\	-di-	-di-	-a-	-a-	.	8B\	-di-	-di-	-a-	-a-	.	8g\	-di-	-di-	-a-	-a-	.	8dd\	-di-	-di-	-a-	-a-	.	.	.
8F\J	.	.	.	.	.	.	8F\	-a	-a	-tus	-tus	.	8B\	-a	-a	-tus	-tus	.	8g\	-a	-a	-tus	-tus	.	8dd\	-a	-a	-tus	-tus	.	.	.
.	.	.	32A/LL	.	(32a/LL	.	.	.	.	.	.	.	.	.	.	.	.	.	.	.	.	.	.	.	.	.	.	.	.	.	.	.
.	.	.	32B/JJJ	.	32b/JJJ)	.	.	.	.	.	.	.	.	.	.	.	.	.	.	.	.	.	.	.	.	.	.	.	.	.	.	.
=24	=24	=24	=24	=24	=24	=24	=24	=24	=24	=24	=24	=24	=24	=24	=24	=24	=24	=24	=24	=24	=24	=24	=24	=24	=24	=24	=24	=24	=24	=24	=24	=24
8E/L	6	.	(16c/LL	.	(16cc\LL	.	4E\	e-	e-	es	es	.	4c\	e-	e-	es	es	.	4g\	e-	e-	es	es	.	4ee\	e-	e-	es	es	.	2cc/	2gg\
.	.	.	16Bn/)	.	16bn\)	.	.	.	.	.	.	.	.	.	.	.	.	.	.	.	.	.	.	.	.	.	.	.	.	.	.	.
8E/	.	.	(16c/	.	(16cc\	.	.	.	.	.	.	.	.	.	.	.	.	.	.	.	.	.	.	.	.	.	.	.	.	.	.	.
.	.	.	16d/JJ)	.	16dd\JJ)	.	.	.	.	.	.	.	.	.	.	.	.	.	.	.	.	.	.	.	.	.	.	.	.	.	.	.
8C/	.	.	(16e/LL	.	(16ee\LL	.	8C/	-jus	-jus	be-	be-	.	8c\	-jus	-jus	be-	be-	.	8g\	-jus	-jus	be-	be-	.	8ee\	-jus	-jus	be-	be-	.	.	.
.	.	.	16d/)	.	16dd\)	.	.	.	.	.	.	.	.	.	.	.	.	.	.	.	.	.	.	.	.	.	.	.	.	.	.	.
*	*	*	*	*	*	*	*	*ij	*ij	*	*	*	*	*	*	*	*	*	*	*	*	*	*	*	*	*	*	*	*	*	*	*
8C/J	.	.	(16e/	.	(16ee\	.	8C/	mi-	mi-	-a-	-a-	.	8c\	mi-	mi-	-a-	-a-	.	8g\	mi-	mi-	-a-	-a-	.	8ee\	mi-	mi-	-a-	-a-	.	.	.
.	.	.	16f/JJ)	.	16ff\JJ)	.	.	.	.	.	.	.	.	.	.	.	.	.	.	.	.	.	.	.	.	.	.	.	.	.	.	.
!	!	!	!LO:LB:g=original	!	!	!	!	!	!	!	!	!	!	!	!	!	!	!	!	!	!	!	!	!	!	!	!	!	!	!	!	!
=25	=25	=25	=25	=25	=25	=25	=25	=25	=25	=25	=25	=25	=25	=25	=25	=25	=25	=25	=25	=25	=25	=25	=25	=25	=25	=25	=25	=25	=25	=25	=25	=25
8BBn/L	6 5	.	(8.g/L	.	(8.gg\L	.	4BBn/	-se-	-se-	-tus	-tus	.	4d\	-ſe-	-ſe-	-tus	-tus	.	4g\	-se-	-se-	-tus	-tus	.	4ff\	-ſe-	-ſe-	-tus	-tus	.	2gg\	2gg\
8BB/	.	.	.	.	.	.	.	.	.	.	.	.	.	.	.	.	.	.	.	.	.	.	.	.	.	.	.	.	.	.	.	.
.	.	.	16f/Jk)	.	16ff\Jk)	.	.	.	.	.	.	.	.	.	.	.	.	.	.	.	.	.	.	.	.	.	.	.	.	.	.	.
8BB/	.	.	(16d/LL	.	16dd\LL	.	4BB/	-ri-	-ri-	es	es	.	4d\	-ri-	-ri-	es	es	.	4g\	-ri-	-ri-	es	es	.	4ff\	-ri-	-ri-	es	es	.	.	.
.	.	.	16e/)	.	(16ee\	.	.	.	.	.	.	.	.	.	.	.	.	.	.	.	.	.	.	.	.	.	.	.	.	.	.	.
8BB/J	.	.	(16f/	.	16ff\)	.	.	.	.	.	.	.	.	.	.	.	.	.	.	.	.	.	.	.	.	.	.	.	.	.	.	.
!	!	!	!	!	!LO:TX:b:i:t=Verte \nCito:mod=	!	!	!	!	!	!	!	!	!	!	!	!	!	!	!	!	!	!	!	!	!	!	!	!	!	!	!
.	.	.	16d/JJ)	.	16dd\JJ	.	.	.	.	.	.	.	.	.	.	.	.	.	.	.	.	.	.	.	.	.	.	.	.	.	.	.
!LO:LB:g=original	!	!	!	!	!LO:PB:g=original	!	!LO:LB:g=original	!	!	!	!	!	!	!	!	!	!	!	!	!	!	!	!	!	!	!	!	!	!	!	!	!
=26	=26	=26	=26	=26	=26	=26	=26	=26	=26	=26	=26	=26	=26	=26	=26	=26	=26	=26	=26	=26	=26	=26	=26	=26	=26	=26	=26	=26	=26	=26	=26	=26
8C/L	.	.	(16e/LL	.	(16ee\LL	.	4C/	-cor-	-cor-	et	et	.	4c\	-cor-	-cor-	et	et	.	4g\	-cor-	-cor-	et	et	.	4ee\	-cor-	-cor-	et	et	.	2cc/	2gg\
.	.	.	16g/)	.	16gg\)	.	.	.	.	.	.	.	.	.	.	.	.	.	.	.	.	.	.	.	.	.	.	.	.	.	.	.
8C/	.	.	(16a/	.	(16aa\	.	.	.	.	.	.	.	.	.	.	.	.	.	.	.	.	.	.	.	.	.	.	.	.	.	.	.
.	.	.	16g/JJ)	.	16gg\JJ)	.	.	.	.	.	.	.	.	.	.	.	.	.	.	.	.	.	.	.	.	.	.	.	.	.	.	.
8E/	6	.	(16f/LL	.	(16ff\LL	.	8E\	-di-	-di-	be-	be-	.	8c\	-di-	-di-	be-	be-	.	8g\	-di-	-di-	be-	be-	.	8gg\	-di-	-di-	be-	be-	.	.	.
.	.	.	16e/)	.	16ee\)	.	.	.	.	.	.	.	.	.	.	.	.	.	.	.	.	.	.	.	.	.	.	.	.	.	.	.
8E/J	.	.	(16d/	.	(16dd\	.	8E\	-a	-a	-ne	-ne	.	8c\	-a	-a	-ne	-ne	.	8g\	-a	-a	-ne	-ne	.	8gg\	-a	-a	-ne	-ne	.	.	.
.	.	.	16c/JJ)	.	16cc\JJ)	.	.	.	.	.	.	.	.	.	.	.	.	.	.	.	.	.	.	.	.	.	.	.	.	.	.	.
!	!	!	!	!	!	!	!	!	!	!	!	!	!LO:LB:g=original	!	!	!	!	!	!	!	!	!	!	!	!LO:PB:g=original	!	!	!	!	!	!	!
=27	=27	=27	=27	=27	=27	=27	=27	=27	=27	=27	=27	=27	=27	=27	=27	=27	=27	=27	=27	=27	=27	=27	=27	=27	=27	=27	=27	=27	=27	=27	=27	=27
*	*	*	*	*	*	*	*	*	*	*	*	*	*	*	*	*	*	*	*	*	*	*	*	*	*^	*	*	*	*	*	*	*
*	*	*	*	*	*	*	*	*	*	*	*	*	*	*	*	*	*	*	*^	*	*	*	*	*	*	*	*	*	*	*	*	*	*
*	*	*	*	*	*	*	*	*	*	*	*	*	*^	*	*	*	*	*	*	*	*	*	*	*	*	*	*	*	*	*	*	*	*	*
*	*	*	*	*	*	*	*^	*	*	*	*	*	*	*	*	*	*	*	*	*	*	*	*	*	*	*	*	*	*	*	*	*	*	*	*
!LO:TX:t=P:problem=mixed beam	!	!	!	!	!	!	!	!LO:MO:mod=8F@	!	!	!	!	!	!	!LO:MO:mod=8d@	!	!	!	!	!	!	!LO:MO:mod=8a@	!	!	!	!	!	!	!LO:MO:mod=8ff@	!	!	!	!	!	!	!
8F\L	6	.	8.d/L	.	16dd\LL	.	4F\	2ryy	e-	e-	tibi	ti-	.	4d\	2ryy	e-	e-	tibi	ti-	.	4a\	2ryy	e-	e-	tibi	ti-	.	4ff\	2ryy	e-	e-	ti-	ti-	.	4ff\	4aa\
.	.	.	.	.	16ee\	.	.	.	.	.	.	.	.	.	.	.	.	.	.	.	.	.	.	.	.	.	.	.	.	.	.	.	.	.	.	.
!	!	!	!	!	!	!	!	!LO:MO:null:mod=8F@	!	!	!	!	!	!	!LO:MO:null:mod=8d@	!	!	!	!	!	!	!LO:MO:null:mod=8a@	!	!	!	!	!	!	!LO:MO:null:mod=8ff@	!	!	!	!	!	!	!
8F\	.	.	.	.	16ff\	.	.	.	.	.	.	-bi	.	.	.	.	.	.	-bi	.	.	.	.	.	.	-bi	.	.	.	.	.	.	-bi	.	.	.
.	.	.	16f/Jk	.	16dd\JJ	.	.	.	.	.	.	.	.	.	.	.	.	.	.	.	.	.	.	.	.	.	.	.	.	.	.	.	.	.	.	.
!	!	!	!	!	!	!	!	!LO:MO:null:mod=4ryy	!	!	!	!	!	!	!LO:MO:null:mod=4ryy	!	!	!	!	!	!	!LO:MO:null:mod=4ryy	!	!	!	!	!	!	!LO:MO:null:mod=4ryy	!	!	!	!	!	!	!
8G\	4	.	(16f/LL	.	16dd\LL	.	4G\	.	.	.	e-	e-	.	8c\L	.	.	.	e-	e-	.	4g\	.	.	.	e-	e-	.	8ee\L	.	.	.	-bi	e-	.	8gg\L	8gg\L
.	n	.	16e/)	.	16cc\	.	.	.	.	.	.	.	.	.	.	.	.	.	.	.	.	.	.	.	.	.	.	.	.	.	.	.	.	.	.	.
8GG/J	.	.	(16e/	.	16cc\	.	.	.	.	.	.	.	.	8Bn\J	.	.	.	.	.	.	.	.	.	.	.	.	.	8dd\J	.	.	.	e-	.	.	8gg\J	8gg\J
.	.	.	16d/JJ)	.	16bn\JJ	.	.	.	.	.	.	.	.	.	.	.	.	.	.	.	.	.	.	.	.	.	.	.	.	.	.	.	.	.	.	.
*	*	*	*	*	*	*	*v	*v	*	*	*	*	*	*	*	*	*	*	*	*	*	*	*	*	*	*	*	*	*	*	*	*	*	*	*	*
*	*	*	*	*	*	*	*	*	*	*	*	*	*v	*v	*	*	*	*	*	*	*	*	*	*	*	*	*	*	*	*	*	*	*	*	*
*	*	*	*	*	*	*	*	*	*	*	*	*	*	*	*	*	*	*	*v	*v	*	*	*	*	*	*	*	*	*	*	*	*	*	*
*	*	*	*	*	*	*	*	*	*	*	*	*	*	*	*	*	*	*	*	*	*	*	*	*	*v	*v	*	*	*	*	*	*	*
=28	=28	=28	=28	=28	=28	=28	=28	=28	=28	=28	=28	=28	=28	=28	=28	=28	=28	=28	=28	=28	=28	=28	=28	=28	=28	=28	=28	=28	=28	=28	=28	=28
4C/	.	.	8e/L	.	8ccT\L	.	4C/	-jus	-jus	-rit	-rit	.	4c\	-jus	-jus	-rit	-rit	.	4g\	-jus	-jus	-rit	-rit	.	4ee\	-jus	-jus	-rit	-rit	.	4cc/	4gg\
*	*	*	*	*	*	*	*	*Xij	*Xij	*	*	*	*	*	*	*	*	*	*	*	*	*	*	*	*	*	*	*	*	*	*	*
.	.	.	16c/L	.	16cc\L	.	.	.	.	.	.	.	.	.	.	.	.	.	.	.	.	.	.	.	.	.	.	.	.	.	.	.
.	.	.	16e/JJ	.	16ee\JJ	.	.	.	.	.	.	.	.	.	.	.	.	.	.	.	.	.	.	.	.	.	.	.	.	.	.	.
4r	.	.	16a/LL	.	(16aa\LL	.	4r	.	.	.	.	.	4r	.	.	.	.	.	4r	.	.	.	.	.	4r	.	.	.	.	.	4r	4r
.	.	.	16b-X/	.	16bb-X\)	.	.	.	.	.	.	.	.	.	.	.	.	.	.	.	.	.	.	.	.	.	.	.	.	.	.	.
.	.	.	16a/	.	(16aa\	.	.	.	.	.	.	.	.	.	.	.	.	.	.	.	.	.	.	.	.	.	.	.	.	.	.	.
.	.	.	16g/JJ	.	16gg\JJ)	.	.	.	.	.	.	.	.	.	.	.	.	.	.	.	.	.	.	.	.	.	.	.	.	.	.	.
!	!	!	!	!	!	!	!	!	!	!	!	!	!	!	!	!	!	!	!LO:LB:g=original	!	!	!	!	!	!	!	!	!	!	!	!	!
=29	=29	=29	=29	=29	=29	=29	=29	=29	=29	=29	=29	=29	=29	=29	=29	=29	=29	=29	=29	=29	=29	=29	=29	=29	=29	=29	=29	=29	=29	=29	=29	=29
8.c\L	#4r 2	.	(8.f#X/L	.	8.ff#Xt\L	.	8c\	et	et	Ec-	Ec-	.	8d\	et	et	Ec-	Ec-	.	8a\	et	et	ec-	ec-	.	8ff#X\	et	et	Ec-	Ec-	.	0r	0r
.	.	.	.	.	.	.	8c\	ve-	ve-	-ce	-ce	.	8d\	ve-	ve-	-ce	-ce	.	8a\	ve-	ve-	-ce	-ce	.	8ff#\	ve-	ve-	-ce	-ce	.	.	.
32d\LL	.	.	32e/LL)	.	(32ee\LL	.	.	.	.	.	.	.	.	.	.	.	.	.	.	.	.	.	.	.	.	.	.	.	.	.	.	.
32c\JJJ	.	.	32f#/JJJ	.	32ff#\JJJ)	.	.	.	.	.	.	.	.	.	.	.	.	.	.	.	.	.	.	.	.	.	.	.	.	.	.	.
8B-X\L	6	.	(16g/LL	.	16gg\LL	.	8B-X\	-ri-	-ri-	sic	sic	.	8d\	-ri-	-ri-	sic	sic	.	8b-X\	-ri-	-ri-	sic	sic	.	8gg\	-ri-	-ri-	sic	sic	.	.	.
.	.	.	16b-/)	.	16bb-\	.	.	.	.	.	.	.	.	.	.	.	.	.	.	.	.	.	.	.	.	.	.	.	.	.	.	.
8F#X\J	6 5	.	(16a/	.	16aa\	.	8F#X\	-tas	-tas	be-	be-	.	8d\	-tas	-tas	be-	be-	.	8cc\	-tas	-tas	bene	bene	.	8aa\	-tas	-tas	be-	be-	.	.	.
.	.	.	16cc/JJ)	.	16ccc\JJ	.	.	.	.	.	.	.	.	.	.	.	.	.	.	.	.	.	.	.	.	.	.	.	.	.	.	.
=30	=30	=30	=30	=30	=30	=30	=30	=30	=30	=30	=30	=30	=30	=30	=30	=30	=30	=30	=30	=30	=30	=30	=30	=30	=30	=30	=30	=30	=30	=30	=30	=30
*	*	*	*	*	*	*	*^	*	*	*	*	*	*	*	*	*	*	*	*	*	*	*	*	*	*^	*	*	*	*	*	*	*
8G\L	.	.	(16b-/LL	.	16bb-\LL	.	8G\	4.ryy	Do-	Do-	-ne-	-ne-	.	8d\	Do-	Do-	-ne-	-ne-	.	8b-\	Do-	Do-	di-	di-	.	8gg\	4.ryy	Do-	Do-	-ne-	-ne-	.	.	.
.	.	.	16g/)	.	16gg\	.	.	.	.	.	.	.	.	.	.	.	.	.	.	.	.	.	.	.	.	.	.	.	.	.	.	.	.	.
8A\	6\	.	(16f#X/	.	16ff#X\	.	8A\	.	-mi-	-mi-	-di-	-di-	.	8d\	-mi-	-mi-	-dice-	-dice-	.	8cc\	-mi-	-mi-	-ce-	-ce-	.	8ff#X\	.	-mi-	-mi-	-di-	-di-	.	.	.
.	.	.	16a/JJ)	.	16aa\JJ	.	.	.	.	.	.	.	.	.	.	.	.	.	.	.	.	.	.	.	.	.	.	.	.	.	.	.	.	.
8B-\J	6	.	8g/L	.	8gg\L	.	8B-\	.	-ni	-ni	-ce-	-ce-	.	8d\	-ni	-ni	-tur	-tur	.	8b-\	-ni	-ni	-tur	-tur	.	8gg\	.	-ni	-ni	-ce-	-ce-	.	.	.
!	!	!	!	!	!	!	!	!	!	!	!	!	!	!	!	!	!	!	!	!	!	!	!	!	!	!	!	!	!	!	!	!	!	!
8r	.	.	(16g/L	.	16gg\L	.	8rC	8B-\	.	.	-tur	-tur	.	8r	.	.	.	.	.	8r	.	.	.	.	.	8rg	8gg\	.	.	-tur	-tur	.	.	.
.	.	.	16fn/JJ)	.	16ffn\JJ	.	.	.	.	.	.	.	.	.	.	.	.	.	.	.	.	.	.	.	.	.	.	.	.	.	.	.	.	.
*	*	*	*	*	*	*	*v	*v	*	*	*	*	*	*	*	*	*	*	*	*	*	*	*	*	*	*v	*v	*	*	*	*	*	*	*
!	!	!	!LO:LB:g=original	!	!	!	!LO:PB:g=original	!	!	!	!	!	!	!	!	!	!	!	!	!	!	!	!	!	!	!	!	!	!	!	!	!
=31	=31	=31	=31	=31	=31	=31	=31	=31	=31	=31	=31	=31	=31	=31	=31	=31	=31	=31	=31	=31	=31	=31	=31	=31	=31	=31	=31	=31	=31	=31	=31	=31
*	*	*	*	*	*	*	*	*	*	*	*	*	*	*ij	*ij	*	*	*	*	*	*	*	*	*	*	*ij	*ij	*	*	*	*	*
8.B-\L	4 2	.	(8.e/L	.	8.eet\L	.	8B-\	et	et	ho-	ho-	.	8c\	et	et	ho-	ho-	.	8g\	et	et	ho-	ho-	.	8ee\	et	et	ho-	ho-	.	.	.
*	*	*	*	*	*	*	*	*	*	*	*	*	*	*	*	*	*	*	*	*ij	*ij	*	*	*	*	*	*	*	*	*	*	*
.	.	.	.	.	.	.	8B-\	ve-	ve-	-mo	-mo	.	8c\	ve-	ve-	.	.	.	8g\	ve-	ve-	-mo	-mo	.	8ee\	ve-	ve-	-mo	-mo	.	.	.
32c\LL	.	.	32d/LL	.	32dd\LL	.	.	.	.	.	.	.	.	.	.	.	.	.	.	.	.	.	.	.	.	.	.	.	.	.	.	.
32B-\JJJ	.	.	32e/JJJ)	.	32ee\JJJ	.	.	.	.	.	.	.	.	.	.	.	.	.	.	.	.	.	.	.	.	.	.	.	.	.	.	.
!	!	!	!	!	!LO:LB:g=original	!	!	!	!	!	!	!	!	!	!	!	!	!	!	!	!	!	!	!	!LO:LB:g=original	!	!	!	!	!	!	!
8A\L	6	.	16f/LL	.	16ff\LL	.	8A\	-ri-	-ri-	qui	qui	.	8c\	-ri-	-ri-	-mo	-mo	.	8a\	-ri-	-ri-	qui	qui	.	8ffn\	-ri-	-ri-	qui	qui	.	.	.
.	.	.	16a/	.	16aa\	.	.	.	.	.	.	.	.	.	.	.	.	.	.	.	.	.	.	.	.	.	.	.	.	.	.	.
8E\J	6 5	.	16g/	.	16gg\	.	8E\	-tas	-tas	ti-	ti-	.	8c\	-tas	-tas	qui	qui	.	8b-\	-tas	-tas	ti-	ti-	.	8gg\	-tas	-tas	ti-	ti-	.	.	.
.	.	.	16b-/JJ	.	16bb-\JJ	.	.	.	.	.	.	.	.	.	.	.	.	.	.	.	.	.	.	.	.	.	.	.	.	.	.	.
!	!	!	!	!	!	!	!	!	!	!	!	!	!LO:PB:g=original	!	!	!	!	!	!	!	!	!	!	!	!	!	!	!	!	!	!	!
=32	=32	=32	=32	=32	=32	=32	=32	=32	=32	=32	=32	=32	=32	=32	=32	=32	=32	=32	=32	=32	=32	=32	=32	=32	=32	=32	=32	=32	=32	=32	=32	=32
8Fn\L	.	.	16a/LL	.	16aa\LL	.	8Fn\	Do-	Do-	-met	-met	.	8c\	Do-	Do-	ti-	ti-	.	8a\	Do-	Do-	-met	-met	.	8ff\	Do-	Do-	-met	-met	.	.	.
.	.	.	16f/	.	16ff\	.	.	.	.	.	.	.	.	.	.	.	.	.	.	.	.	.	.	.	.	.	.	.	.	.	.	.
8G\	6	.	16e/	.	16ee\	.	8G\	-mi-	-mi-	qui	qui	.	8c\	-mi-	-mi-	.	.	.	8b-\	-mi-	-mi-	Do-	Do-	.	8ee\	-mi-	-mi-	qui	qui	.	.	.
.	.	.	16g/JJ	.	16gg\JJ	.	.	.	.	.	.	.	.	.	.	.	.	.	.	.	.	.	.	.	.	.	.	.	.	.	.	.
8A\	6	.	8f/L	.	8ff\L	.	8A\	-ni	-ni	ti-	ti-	.	8c\	-ni	-ni	-met	-met	.	8a\	-ni	-ni	-mi-	-mi-	.	8ff\	-ni	-ni	ti-	ti-	.	.	.
*	*	*	*	*	*	*	*	*ij	*ij	*	*	*	*	*	*	*	*	*	*	*Xij	*Xij	*	*	*	*	*Xij	*Xij	*	*	*	*	*
8A\J	6 -5r	.	8c/J	.	16ff\L	.	8A\	et	et	-met	-met	.	8F/	et	et	qui	qui	.	8cc\	et	et	-ni	-ni	.	8ee-X\	et	et	-met	-met	.	.	.
.	.	.	.	.	16ee-X\JJ	.	.	.	.	.	.	.	.	.	.	.	.	.	.	.	.	.	.	.	.	.	.	.	.	.	.	.
!LO:LB:g=original	!	!	!	!	!	!	!	!	!	!	!	!	!	!	!	!	!	!	!LO:LB:g=original	!	!	!	!	!	!	!	!	!	!	!	!	!
=33	=33	=33	=33	=33	=33	=33	=33	=33	=33	=33	=33	=33	=33	=33	=33	=33	=33	=33	=33	=33	=33	=33	=33	=33	=33	=33	=33	=33	=33	=33	=33	=33
*	*	*	*	*	*	*	*	*	*	*	*	*	*	*	*	*	*	*	*	*ij	*ij	*	*	*	*	*	*	*	*	*	*	*
!	!	!	!LO:TX:t=P:problem=mixed beam	!	!	!	!	!	!	!	!	!	!	!	!	!	!	!	!	!	!	!	!	!	!	!	!	!	!	!	!	!
8B-\L	.	.	8B-/L	.	16dd\LL	.	4B-\	ve-	ve-	Do-	Do-	.	4d\	ve-	ve-	ti-	ti-	.	4b-\	ve-	ve-	Be-	Be-	.	4dd\	ve-	ve-	Do-	Do-	.	2r	2r
.	.	.	.	.	16cc\	.	.	.	.	.	.	.	.	.	.	.	.	.	.	.	.	.	.	.	.	.	.	.	.	.	.	.
8B-\	.	.	8b-\	.	16dd\	.	.	.	.	.	.	.	.	.	.	.	.	.	.	.	.	.	.	.	.	.	.	.	.	.	.	.
.	.	.	.	.	16ff\JJ	.	.	.	.	.	.	.	.	.	.	.	.	.	.	.	.	.	.	.	.	.	.	.	.	.	.	.
8G\	6 3	.	8b-\	.	16een\LL	.	8G\	-ri-	-ri-	-mi-	-mi-	.	8c\	-ri-	-ri-	-met	-met	.	8b-\	-ri-	-ri-	-ne-	-ne-	.	8een\	-ri-	-ri-	-mi-	-mi-	.	.	.
.	.	.	.	.	16cc\	.	.	.	.	.	.	.	.	.	.	.	.	.	.	.	.	.	.	.	.	.	.	.	.	.	.	.
8G\J	.	.	8b-\J	.	16dd\	.	8G\	-tas	-tas	-num	-num	.	8c\	-tas	-tas	Do-	Do-	.	8b-\	-tas	-tas	-di-	-di-	.	8ee\	-tas	-tas	-num	-num	.	.	.
.	.	.	.	.	16ee\JJ	.	.	.	.	.	.	.	.	.	.	.	.	.	.	.	.	.	.	.	.	.	.	.	.	.	.	.
=34	=34	=34	=34	=34	=34	=34	=34	=34	=34	=34	=34	=34	=34	=34	=34	=34	=34	=34	=34	=34	=34	=34	=34	=34	=34	=34	=34	=34	=34	=34	=34	=34
8F\L	.	.	8a\L	.	16ff\LL	.	4F\	Do-	Do-	Be-	Be-	.	4c\	Do-	Do-	-mi-	-mi-	.	4a\	Do-	Do-	-cat	-cat	.	4ff\	Do-	Do-	Be-	Be-	.	8r	8r
.	.	.	.	.	16cc\	.	.	.	.	.	.	.	.	.	.	.	.	.	.	.	.	.	.	.	.	.	.	.	.	.	.	.
8F\	.	.	8a\	.	16aa\	.	.	.	.	.	.	.	.	.	.	.	.	.	.	.	.	.	.	.	.	.	.	.	.	.	8ff\L	8aa\L
.	.	.	.	.	16gg\JJ	.	.	.	.	.	.	.	.	.	.	.	.	.	.	.	.	.	.	.	.	.	.	.	.	.	.	.
8A\	6	.	8cc\	.	16gg\LL	.	8A\	-mi-	-mi-	-ne-	-ne-	.	8c\	-mi-	-mi-	.	.	.	8cc\	-mi-	-mi-	ti-	ti-	.	8ff\	-mi-	-mi-	-ne-	-ne-	.	8ff\	8aa\
.	.	.	.	.	16ff\	.	.	.	.	.	.	.	.	.	.	.	.	.	.	.	.	.	.	.	.	.	.	.	.	.	.	.
8A\J	.	.	8cc\J	.	16ee\	.	8A\	-ni	-ni	-di	-di	.	8c\	-ni	-ni	-num	-num	.	8cc\	-ni	-ni	-bi	-bi	.	8ff\	-ni	-ni	-di-	-di-	.	8ff\J	8aa\J
*	*	*	*	*	*	*	*	*Xij	*Xij	*	*	*	*	*Xij	*Xij	*	*	*	*	*Xij	*Xij	*	*	*	*	*	*	*	*	*	*	*
.	.	.	.	.	16ff\JJ	.	.	.	.	.	.	.	.	.	.	.	.	.	.	.	.	.	.	.	.	.	.	.	.	.	.	.
!	!	!	!	!	!	!	!LO:LB:g=original	!	!	!	!	!	!	!	!	!	!	!	!	!	!	!	!	!	!	!	!	!	!	!	!	!
=35	=35	=35	=35	=35	=35	=35	=35	=35	=35	=35	=35	=35	=35	=35	=35	=35	=35	=35	=35	=35	=35	=35	=35	=35	=35	=35	=35	=35	=35	=35	=35	=35
*	*	*	*tremolo	*	*	*	*	*	*	*	*	*	*	*	*	*	*	*	*	*	*	*	*	*	*	*	*	*	*	*	*	*
!	!	!	!LO:MO:mod=*null:null	!	!	!	!	!	!	!	!	!	!	!	!	!	!	!	!	!	!	!	!	!	!	!	!	!	!	!	!	!
*	*	*	*2\right	*	*	*	*	*	*	*	*	*	*	*	*	*	*	*	*	*	*	*	*	*	*	*	*	*	*	*	*	*
8B-\L	6	.	8dd\L	.	16ff\LL	.	8B-\	ma-	ma-	cat	cat	.	8d\	ma-	ma-	Be-	Be-	.	8b-\	ma-	ma-	Do-	Do-	.	8gg\	ma-	ma-	-cat	-cat	.	4gg\	4bb-\
.	.	.	.	.	16gg\	.	.	.	.	.	.	.	.	.	.	.	.	.	.	.	.	.	.	.	.	.	.	.	.	.	.	.
8B-\	.	.	8dd\	.	16aa\	.	8B-\	-net	-net	ti-	ti-	.	8d\	-net	-net	-ne-	-ne-	.	8b-\	-net	-net	-mi-	-mi-	.	8gg\	-net	-net	ti-	ti-	.	.	.
.	.	.	.	.	16gg\JJ	.	.	.	.	.	.	.	.	.	.	.	.	.	.	.	.	.	.	.	.	.	.	.	.	.	.	.
8Bn\	5	.	8dd\	.	16gg\LL	.	8Bn\	in	in	-bi	-bi	.	8d\	in	in	-di-	-di-	.	8a\	in	in	-nus	-nus	.	8ff\	in	in	-bi	-bi	.	4ff\	4gg\
.	.	.	.	.	16ff\	.	.	.	.	.	.	.	.	.	.	.	.	.	.	.	.	.	.	.	.	.	.	.	.	.	.	.
8B\J	.	.	8dd\J	.	16ee\	.	8B\	ae-	ae-	Do-	Do-	.	8d\	e-	e-	-cat	-cat	.	8a\	e-	e-	ex	ex	.	8ff\	ae-	ae-	Do-	Do-	.	.	.
.	.	.	.	.	16ff\JJ	.	.	.	.	.	.	.	.	.	.	.	.	.	.	.	.	.	.	.	.	.	.	.	.	.	.	.
*	*	*	*Xtremolo	*	*	*	*	*	*	*	*	*	*	*	*	*	*	*	*	*	*	*	*	*	*	*	*	*	*	*	*	*
!	!	!	!	!	!	!	!	!	!	!	!	!	!LO:LB:g=original	!	!	!	!	!	!	!	!	!	!	!	!LO:LB:g=original	!	!	!	!	!	!	!
=36	=36	=36	=36	=36	=36	=36	=36	=36	=36	=36	=36	=36	=36	=36	=36	=36	=36	=36	=36	=36	=36	=36	=36	=36	=36	=36	=36	=36	=36	=36	=36	=36
!LO:TX:t=P:problem=mixed beam	!	!	!	!	!	!	!	!	!	!	!	!	!	!	!	!	!	!	!	!	!	!	!	!	!	!	!	!	!	!	!	!
8c\L	4	.	8.a/L	.	8.ff\L	.	4c\	-ter-	-ter-	-mi-	-mi-	.	4c\	-ter-	-ter-	ti-	ti-	.	4a\	-ter-	-ter-	si-	si-	.	4ff\	-ter-	-ter-	-mi-	-mi-	.	4ff\	4aa\
8c\	3	.	.	.	.	.	.	.	.	.	.	.	.	.	.	.	.	.	.	.	.	.	.	.	.	.	.	.	.	.	.	.
.	.	.	32g/LL	.	32ee\LL	.	.	.	.	.	.	.	.	.	.	.	.	.	.	.	.	.	.	.	.	.	.	.	.	.	.	.
.	.	.	32a/JJJ	.	32ff\JJJ	.	.	.	.	.	.	.	.	.	.	.	.	.	.	.	.	.	.	.	.	.	.	.	.	.	.	.
8C/J	.	.	8g/	.	16ee\LL	.	8C/	-num	-num	-nus	-nus	.	8c\	-num	-num	-bi	-bi	.	8g\	-num	-num	-on	-on	.	8ee\	-num	-num	-nus	-nus	.	8cc/	8gg\
.	.	.	.	.	16ff\	.	.	.	.	.	.	.	.	.	.	.	.	.	.	.	.	.	.	.	.	.	.	.	.	.	.	.
8r	.	.	8r	.	16gg\	.	8r	.	.	.	.	.	8r	.	.	.	.	.	8r	.	.	.	.	.	8r	.	.	.	.	.	8r	8r
.	.	.	.	.	16ee\JJ	.	.	.	.	.	.	.	.	.	.	.	.	.	.	.	.	.	.	.	.	.	.	.	.	.	.	.
!	!	!	!	!	!LO:LB:g=original	!	!	!	!	!	!	!	!	!	!	!	!	!	!	!	!	!	!	!	!	!	!	!	!	!	!	!LO:LB:g=original
=37	=37	=37	=37	=37	=37	=37	=37	=37	=37	=37	=37	=37	=37	=37	=37	=37	=37	=37	=37	=37	=37	=37	=37	=37	=37	=37	=37	=37	=37	=37	=37	=37
8r	.	.	8r	.	8cc\L	.	8r	.	.	.	.	.	8r	.	.	.	.	.	8r	.	.	.	.	.	8r	.	.	.	.	.	8r	8r
!	!	!	!	!	!	!	!	!	!	!	!	!	!	!	!	!	!	!	!	!	!	!	!	!	!	!	!	!	!	!	!LO:TX:t=P:problem=mixed beam	!
8C/L	n 3	.	8e/L	.	16dd\L	.	8C\L	ma-	ma-	ex	ex	.	4G/	ma-	ma-	[[Do]]-	Do-	.	8cc\L	ma-	ma-	ex	ex	.	8ee\L	ma-	ma-	ex	ex	.	8gg\L	8gg\L
.	.	.	.	.	16cc\JJ	.	.	.	.	.	.	.	.	.	.	.	.	.	.	.	.	.	.	.	.	.	.	.	.	.	.	.
8D/	6\ 3	.	8f/	.	16cc\LL	.	8D\	.	.	si-	si-	.	.	.	.	.	.	.	8bn\	.	.	si-	si-	.	8ff\	.	.	si-	si-	.	8gg\	8gg\
.	.	.	.	.	16bn\	.	.	.	.	.	.	.	.	.	.	.	.	.	.	.	.	.	.	.	.	.	.	.	.	.	.	.
8E/J	-5r 3	.	8g/J	.	16g\	.	8E\J	.	.	-on	-on	.	8c\	.	.	-mi-	-mi-	.	8b-X\J	.	.	-on	-on	.	8gg\J	.	.	-on	-on	.	8cc/J	8gg\J
.	.	.	.	.	16b-X\JJ	.	.	.	.	.	.	.	.	.	.	.	.	.	.	.	.	.	.	.	.	.	.	.	.	.	.	.
!	!	!	!	!	!	!	!	!	!	!	!	!	!	!	!	!	!	!	!LO:LB:g=original	!	!	!	!	!	!	!	!	!	!	!	!	!
=38	=38	=38	=38	=38	=38	=38	=38	=38	=38	=38	=38	=38	=38	=38	=38	=38	=38	=38	=38	=38	=38	=38	=38	=38	=38	=38	=38	=38	=38	=38	=38	=38
!	!	!	!	!	!	!	!	!	!	!	!	!	!LO:MO:mod=*null:null	!	!	!	!	!	!	!	!	!	!	!	!	!	!	!	!	!	!	!
*	*	*	*	*	*	*	*	*	*	*	*	*	*2\right	*	*	*	*	*	*	*	*	*	*	*	*	*	*	*	*	*	*	*
8F\L	.	.	8a\L	.	16a\LL	.	8F\L	.	.	et	et	.	2c\	.	.	-nus	-nus	.	8a\L	.	.	et	et	.	8ff\L	.	.	et	et	.	8ff/L	8aa\L
.	.	.	.	.	16cc\	.	.	.	.	.	.	.	.	.	.	.	.	.	.	.	.	.	.	.	.	.	.	.	.	.	.	.
8G\	6	.	8b-\	.	16ff\	.	8G\	.	.	.	.	.	.	.	.	.	.	.	8b-\J	.	.	vi-	vi-	.	8ee\J	.	.	vi-	vi-	.	8cc/	8gg\
.	.	.	.	.	16ee\JJ	.	.	.	.	.	.	.	.	.	.	.	.	.	.	.	.	.	.	.	.	.	.	.	.	.	.	.
8A\	6	.	8cc\	.	16gg\LL	.	8A\	.	.	vi-	vi-	.	.	.	.	.	.	.	4a\	.	.	-de-	-de-	.	4ff\	.	.	-de-	-de-	.	8a/	8ff\
.	.	.	.	.	16ff\	.	.	.	.	.	.	.	.	.	.	.	.	.	.	.	.	.	.	.	.	.	.	.	.	.	.	.
8F\J	.	.	8a\J	.	16aa\	.	8F\J	.	.	-de	-de	.	.	.	.	.	.	.	.	.	.	.	.	.	.	.	.	.	.	.	8a/J	8ff\J
.	.	.	.	.	16ff\JJ	.	.	.	.	.	.	.	.	.	.	.	.	.	.	.	.	.	.	.	.	.	.	.	.	.	.	.
!	!	!	!LO:LB:g=original	!	!	!	!	!	!	!	!	!	!	!	!	!	!	!	!	!	!	!	!	!	!	!	!	!	!	!	!LO:LB:g=original	!
=39	=39	=39	=39	=39	=39	=39	=39	=39	=39	=39	=39	=39	=39	=39	=39	=39	=39	=39	=39	=39	=39	=39	=39	=39	=39	=39	=39	=39	=39	=39	=39	=39
!LO:TX:t=P:problem=mixed beam	!	!	!	!	!	!	!	!	!	!	!	!	!	!	!	!	!	!	!	!	!	!	!	!	!	!	!	!	!	!	!	!
8c\L	.	.	8g/L	.	16ff\LL	.	8c\	-net	-net	-as	-as	.	8c\	-net	-net	ex	ex	.	8g\	-net	-net	-as	-as	.	8ee\	-net	-net	-as	-as	.	4cc/	4gg\
.	.	.	.	.	16ee\	.	.	.	.	.	.	.	.	.	.	.	.	.	.	.	.	.	.	.	.	.	.	.	.	.	.	.
*	*	*	*	*	*	*	*	*	*	*	*	*	*	*ij	*ij	*	*	*	*	*	*	*	*	*	*	*	*	*	*	*	*	*
8C/	6\ 3	.	8e/	.	16dd\	.	8C\L	ma-	ma-	bo-	bo-	.	4G/	ma-	ma-	si-	si-	.	8cc\L	ma-	ma-	bo-	bo-	.	8ee\L	ma-	ma-	bo-	bo-	.	.	.
.	.	.	.	.	16cc\JJ	.	.	.	.	.	.	.	.	.	.	.	.	.	.	.	.	.	.	.	.	.	.	.	.	.	.	.
!	!	!	!	!	!	!	!	!	!	!	!	!	!	!	!	!	!	!	!	!	!	!	!	!	!	!	!	!	!	!	!LO:TX:t=P:problem=mixed beam	!
8D/	x 3	.	8f/	.	16cc\LL	.	8D\	.	.	-na	-na	.	.	.	.	.	.	.	8bn\	.	.	-na	-na	.	8ff\	.	.	-na	-na	.	8gg\L	8gg\L
.	.	.	.	.	16bn\	.	.	.	.	.	.	.	.	.	.	.	.	.	.	.	.	.	.	.	.	.	.	.	.	.	.	.
8E/J	-5r 3	.	8g/J	.	16g\	.	8E\J	.	.	Je-	Je-	.	8c\	.	.	-on	-on	.	8b-X\J	.	.	Je-	Je-	.	8gg\J	.	.	Je-	Je-	.	8cc/J	8gg\J
.	.	.	.	.	16b-X\JJ	.	.	.	.	.	.	.	.	.	.	.	.	.	.	.	.	.	.	.	.	.	.	.	.	.	.	.
!LO:LB:g=original	!	!	!	!	!	!	!LO:LB:g=original	!	!	!	!	!	!	!	!	!	!	!	!	!	!	!	!	!	!	!	!	!	!	!	!	!
=40	=40	=40	=40	=40	=40	=40	=40	=40	=40	=40	=40	=40	=40	=40	=40	=40	=40	=40	=40	=40	=40	=40	=40	=40	=40	=40	=40	=40	=40	=40	=40	=40
8F\L	.	.	8a\L	.	16a\LL	.	8F\L	.	.	-ru-	-ru-	.	2c\	-net	-net	et	et	.	8a\L	.	.	-ru-	-ru-	.	8ff\L	.	.	-ru-	-ru-	.	8ff/L	8aa\L
.	.	.	.	.	16cc\	.	.	.	.	.	.	.	.	.	.	.	.	.	.	.	.	.	.	.	.	.	.	.	.	.	.	.
8G\	.	.	8b-\	.	16ff\	.	8G\	.	.	.	.	.	.	.	.	.	.	.	8b-\J	.	.	-sa-	-sa-	.	8ee\J	.	.	-sa-	-sa-	.	8cc/	8gg\
.	.	.	.	.	16ee\JJ	.	.	.	.	.	.	.	.	.	.	.	.	.	.	.	.	.	.	.	.	.	.	.	.	.	.	.
8A\	.	.	8cc\	.	16gg\LL	.	8A\	.	.	-sa-	-sa-	.	.	.	.	.	.	.	4a\	.	.	-lem	-lem	.	4ff\	.	.	-lem	-lem	.	8a/	8ff\
.	.	.	.	.	16ff\	.	.	.	.	.	.	.	.	.	.	.	.	.	.	.	.	.	.	.	.	.	.	.	.	.	.	.
8F\J	.	.	8a\J	.	16aa\	.	8F\J	.	.	-lem	-lem	.	.	.	.	.	.	.	.	.	.	.	.	.	.	.	.	.	.	.	8a/J	8ff\J
.	.	.	.	.	16ff\JJ	.	.	.	.	.	.	.	.	.	.	.	.	.	.	.	.	.	.	.	.	.	.	.	.	.	.	.
=41	=41	=41	=41	=41	=41	=41	=41	=41	=41	=41	=41	=41	=41	=41	=41	=41	=41	=41	=41	=41	=41	=41	=41	=41	=41	=41	=41	=41	=41	=41	=41	=41
*	*	*	*tremolo	*	*	*	*	*	*	*	*	*	*	*	*	*	*	*	*	*	*	*	*	*	*	*	*	*	*	*	*	*
8C/L	.	.	8g/L	.	16ff\LL	.	4c\	-net	-net	o-	o-	.	4c\	ma-	ma-	vi-	vi-	.	4g\	-net	-net	o-	o-	.	4ee\	-net	-net	o-	o-	.	4cc/	4gg\
.	.	.	.	.	16ee\	.	.	.	.	.	.	.	.	.	.	.	.	.	.	.	.	.	.	.	.	.	.	.	.	.	.	.
8C/	.	.	8g/	.	16ee\	.	.	.	.	.	.	.	.	.	.	.	.	.	.	.	.	.	.	.	.	.	.	.	.	.	.	.
.	.	.	.	.	16ff\JJ	.	.	.	.	.	.	.	.	.	.	.	.	.	.	.	.	.	.	.	.	.	.	.	.	.	.	.
*	*	*	*	*	*	*	*	*ij	*ij	*	*	*	*	*	*	*	*	*	*	*	*	*	*	*	*	*	*	*	*	*	*	*
8E/	6_ 5_	.	8g/	.	16gg\LL	.	(4E\	ma-	ma-	-mni-	-mni-	.	4c\	-net	-net	-de-	-de-	.	4g\	ma-	ma-	-mni-	-mni-	.	4gg\	in	in	-mni-	-mni-	.	4cc/	4gg\
.	.	.	.	.	16ee\	.	.	.	.	.	.	.	.	.	.	.	.	.	.	.	.	.	.	.	.	.	.	.	.	.	.	.
8E/J	.	.	8g/J	.	16cc\	.	.	.	.	.	.	.	.	.	.	.	.	.	.	.	.	.	.	.	.	.	.	.	.	.	.	.
.	X X	.	.	.	16b-\JJ	.	.	.	.	.	.	.	.	.	.	.	.	.	.	.	.	.	.	.	.	.	.	.	.	.	.	.
*	*	*	*Xtremolo	*	*	*	*	*	*	*	*	*	*	*	*	*	*	*	*	*	*	*	*	*	*	*	*	*	*	*	*	*
!	!	!	!	!	!	!	!	!	!	!	!	!	!	!	!	!	!	!	!	!	!	!	!	!	!LO:LB:g=original	!	!	!	!	!	!	!
=42	=42	=42	=42	=42	=42	=42	=42	=42	=42	=42	=42	=42	=42	=42	=42	=42	=42	=42	=42	=42	=42	=42	=42	=42	=42	=42	=42	=42	=42	=42	=42	=42
*	*	*	*	*	*	*	*	*	*	*	*	*	*	*	*	*	*	*	*	*	*	*	*	*	*^	*	*	*	*	*	*	*
*	*	*	*	*	*	*	*	*	*	*	*	*	*	*	*	*	*	*	*^	*	*	*	*	*	*	*	*	*	*	*	*	*	*
*	*	*	*	*	*	*	*^	*	*	*	*	*	*	*	*	*	*	*	*	*	*	*	*	*	*	*	*	*	*	*	*	*	*	*
!	!	!	!	!	!	!	!	!LO:MO:mod=4ryy	!	!	!	!	!	!	!	!	!	!	!	!	!LO:MO:mod=4ryy	!	!	!	!	!	!	!	!	!	!	!	!	!	!
8F\L	.	.	8a\L	.	16a\LL	.	4F\)	2ryy	.	.	-bus	-bus	.	4c\	ma-	ma-	-as	-as	.	4a\	2ryy	.	.	-bus	-bus	.	4ff\	4ryy	.	.	-bus	-bus	.	4ff\	4aa\
.	.	.	.	.	16cc\	.	.	.	.	.	.	.	.	.	.	.	.	.	.	.	.	.	.	.	.	.	.	.	.	.	.	.	.	.	.
8F\	.	.	8a\	.	16ff\	.	.	.	.	.	.	.	.	.	.	.	.	.	.	.	.	.	.	.	.	.	.	.	.	.	.	.	.	.	.
.	.	.	.	.	16aa\JJ	.	.	.	.	.	.	.	.	.	.	.	.	.	.	.	.	.	.	.	.	.	.	.	.	.	.	.	.	.	.
!	!	!	!	!	!LO:LB:g=original	!	!	!LO:MO:null:mod=8A@	!	!	!	!	!	!	!	!	!	!	!	!	!LO:MO:null:mod=8cc@	!	!	!	!	!	!	!	!	!	!	!	!	!	!
8A\	6	.	8cc\	.	16gg\LL	.	4A\	.	-net	-net	die-	di-	.	4c\	-net	-net	bo-	bo-	.	4cc\	.	-net	-net	die-	di-	.	4ff\	8ff\	ae-	ae-	di-	di-	.	4ff\	4aa\
*	*	*	*	*	*	*	*	*	*Xij	*Xij	*	*	*	*	*Xij	*Xij	*	*	*	*	*	*	*	*	*	*	*	*	*	*	*	*	*	*	*
.	.	.	.	.	16ff\	.	.	.	.	.	.	.	.	.	.	.	.	.	.	.	.	.	.	.	.	.	.	.	.	.	.	.	.	.	.
!	!	!	!	!	!	!	!	!LO:MO:null:mod=8A@	!	!	!	!	!	!	!	!	!	!	!	!	!LO:MO:null:mod=8cc@	!	!	!	!	!	!	!	!	!	!	!	!	!	!
8A\J	.	.	8cc\J	.	16ee\	.	.	.	.	.	.	-e-	.	.	.	.	.	.	.	.	.	.	.	.	-e-	.	.	8ff\	.	.	-e-	-e-	.	.	.
.	.	.	.	.	16ff\JJ	.	.	.	.	.	.	.	.	.	.	.	.	.	.	.	.	.	.	.	.	.	.	.	.	.	.	.	.	.	.
*	*	*	*	*	*	*	*v	*v	*	*	*	*	*	*	*	*	*	*	*	*	*	*	*	*	*	*	*	*	*	*	*	*	*	*	*
*	*	*	*	*	*	*	*	*	*	*	*	*	*	*	*	*	*	*	*v	*v	*	*	*	*	*	*	*	*	*	*	*	*	*	*
*	*	*	*	*	*	*	*	*	*	*	*	*	*	*	*	*	*	*	*	*	*	*	*	*	*v	*v	*	*	*	*	*	*	*
!	!	!	!	!	!	!	!	!	!	!	!	!	!LO:LB:g=original	!	!	!	!	!	!	!	!	!	!	!	!	!	!	!	!	!	!	!
=43	=43	=43	=43	=43	=43	=43	=43	=43	=43	=43	=43	=43	=43	=43	=43	=43	=43	=43	=43	=43	=43	=43	=43	=43	=43	=43	=43	=43	=43	=43	=43	=43
*	*	*	*	*	*	*	*	*	*	*	*	*	*^	*	*	*	*	*	*	*	*	*	*	*	*	*	*	*	*	*	*	*
!LO:TX:t=P:problem=mixed beam	!	!	!	!	!	!	!	!	!	!	!	!	!	!LO:MO:mod=4ryy	!	!	!	!	!	!	!	!	!	!	!	!	!	!	!	!	!	!	!
8B-\L	6	.	8.dd\L	.	16ff#X\LL	.	8B-\	-in	-in	-bus	-bus	.	8d\	2ryy	in	in	-na	-na	.	8b-\	-in	-in	-bus	-bus	.	4gg\	-ter-	-ter-	-bus	-bus	.	4gg\	4bb-\
.	.	.	.	.	16gg\	.	.	.	.	.	.	.	.	.	.	.	.	.	.	.	.	.	.	.	.	.	.	.	.	.	.	.	.
8B-\	.	.	.	.	16bb-\	.	8B-\	e-	e-	vi-	vi-	.	8d\	.	e-	e-	Jeru-	Je-	.	8b-\	ae-	ae-	vi-	vi-	.	.	.	.	.	.	.	.	.
.	.	.	16b-\Jk	.	16gg\JJ	.	.	.	.	.	.	.	.	.	.	.	.	.	.	.	.	.	.	.	.	.	.	.	.	.	.	.	.
!	!	!	!	!	!	!	!LO:TX:t=P:problem=mixed beam	!	!	!	!	!	!	!LO:MO:null:mod=8c@	!	!	!	!	!	!LO:LB:g=original	!	!	!	!	!	!	!	!	!	!	!	!	!
8c\	4	.	16b-/LL	.	16gg\LL	.	8c\L	-ter-	-ter-	-te	-te	.	4c\	.	-ter-	-ter-	-sa-	-ru-	.	8a\L	-ter-	-ter-	-te	-te	.	8ff\L	.	.	vi-	vi-	.	8ff\L	8aa\L
.	.	.	16a/	.	16ffn\	.	.	.	.	.	.	.	.	.	.	.	.	.	.	.	.	.	.	.	.	.	.	.	.	.	.	.	.
!	!	!	!LO:SIC:v:s=16a	!	!	!	!	!	!	!	!	!	!	!LO:MO:null:mod=8c@	!	!	!	!	!	!	!	!	!	!	!	!	!	!	!	!	!	!	!
8C/J	3	.	16g/	.	16ff\	.	8C/J	.	.	tu-	tu-	.	.	.	.	.	.	-sa-	.	8g\J	.	.	tu-	tu-	.	8ee\J	.	.	-te	-te	.	8cc\J	8gg\J
!	!	!	!LO:SIC:v:s=16gJJ	!	!	!	!	!	!	!	!	!	!	!	!	!	!	!	!	!	!	!	!	!	!	!	!	!	!	!	!	!	!
.	.	.	16f/JJ	.	16ee\JJ	.	.	.	.	.	.	.	.	.	.	.	.	.	.	.	.	.	.	.	.	.	.	.	.	.	.	.	.
*	*	*	*	*	*	*	*	*	*	*	*	*	*v	*v	*	*	*	*	*	*	*	*	*	*	*	*	*	*	*	*	*	*	*
=44	=44	=44	=44	=44	=44	=44	=44	=44	=44	=44	=44	=44	=44	=44	=44	=44	=44	=44	=44	=44	=44	=44	=44	=44	=44	=44	=44	=44	=44	=44	=44	=44
!LO:TX:a:i:t=Solo	!	!	!	!	!	!	!	!	!	!	!	!	!	!	!	!	!	!	!	!	!	!	!	!	!	!	!	!	!	!	!	!
4F\	.	.	4a/	.	16ff\LL	.	4F\	-num	-num	-ae	-ae	.	4c\	-num	-num	-lem	-lem	.	4a\	-num	-num	-ae	-ae	.	8ee\	.	.	tu-	tu-	.	4a/	4ff\
.	.	.	.	.	16aa\	.	.	.	.	.	.	.	.	.	.	.	.	.	.	.	.	.	.	.	.	.	.	.	.	.	.	.
.	.	.	.	.	16gg\	.	.	.	.	.	.	.	.	.	.	.	.	.	.	.	.	.	.	.	8ff\	-num	-num	-ae	-ae	.	.	.
.	.	.	.	.	16ff\JJ	.	.	.	.	.	.	.	.	.	.	.	.	.	.	.	.	.	.	.	.	.	.	.	.	.	.	.
8r	.	.	8r	.	16ee\LL	.	4r	.	.	.	.	.	4r	.	.	.	.	.	4r	.	.	.	.	.	4r	.	.	.	.	.	4r	4r
.	.	.	.	.	16ff\	.	.	.	.	.	.	.	.	.	.	.	.	.	.	.	.	.	.	.	.	.	.	.	.	.	.	.
8A\	6	.	8cc\	.	16cc\	.	.	.	.	.	.	.	.	.	.	.	.	.	.	.	.	.	.	.	.	.	.	.	.	.	.	.
.	.	.	.	.	16ee-X\JJ	.	.	.	.	.	.	.	.	.	.	.	.	.	.	.	.	.	.	.	.	.	.	.	.	.	.	.
=45	=45	=45	=45	=45	=45	=45	=45	=45	=45	=45	=45	=45	=45	=45	=45	=45	=45	=45	=45	=45	=45	=45	=45	=45	=45	=45	=45	=45	=45	=45	=45	=45
!LO:TX:t=P:problem=mixed beam	!	!	!	!	!	!	!	!	!	!	!	!	!	!	!	!	!	!	!	!	!	!	!	!	!	!	!	!	!	!	!	!
8B-\L	6	.	16cc\LL	.	16ee\LL	.	0r	.	.	.	.	.	0r	.	.	.	.	.	2r	.	.	.	.	.	2r	.	.	.	.	.	0r	0r
.	.	.	16b-\	.	16dd\	.	.	.	.	.	.	.	.	.	.	.	.	.	.	.	.	.	.	.	.	.	.	.	.	.	.	.
8B-\	.	.	16dd\	.	16bb-\	.	.	.	.	.	.	.	.	.	.	.	.	.	.	.	.	.	.	.	.	.	.	.	.	.	.	.
.	.	.	16b-\JJ	.	16gg\JJ	.	.	.	.	.	.	.	.	.	.	.	.	.	.	.	.	.	.	.	.	.	.	.	.	.	.	.
8c\	4	.	16b-/LL	.	16gg\LL	.	.	.	.	.	.	.	.	.	.	.	.	.	.	.	.	.	.	.	.	.	.	.	.	.	.	.
.	.	.	16a/	.	16ff\	.	.	.	.	.	.	.	.	.	.	.	.	.	.	.	.	.	.	.	.	.	.	.	.	.	.	.
8C/J	3	.	16a/	.	16ff\	.	.	.	.	.	.	.	.	.	.	.	.	.	.	.	.	.	.	.	.	.	.	.	.	.	.	.
.	.	.	16g/JJ	.	16een\JJ	.	.	.	.	.	.	.	.	.	.	.	.	.	.	.	.	.	.	.	.	.	.	.	.	.	.	.
=46	=46	=46	=46	=46	=46	=46	=46	=46	=46	=46	=46	=46	=46	=46	=46	=46	=46	=46	=46	=46	=46	=46	=46	=46	=46	=46	=46	=46	=46	=46	=46	=46
*	*	*	*tremolo	*	*	*	*	*	*	*	*	*	*	*	*	*	*	*	*	*	*	*	*	*	*	*	*	*	*	*	*	*
!	!	!	!	!LO:DY:a:rj:t=p.	!	!LO:DY:a:rj:t=p.	!	!	!	!	!	!	!	!	!	!	!	!	!LO:TX:a:i:t=Solo	!	!	!	!	!	!LO:TX:a:i:t=Solo	!	!	!	!	!	!	!
4F\	.	.	8a/L	p	8ff\L	p	.	.	.	.	.	.	.	.	.	.	.	.	8r	.	.	.	.	.	8r	.	.	.	.	.	.	.
.	.	.	8a/	.	8cc\J	.	.	.	.	.	.	.	.	.	.	.	.	.	8a\	-Glo-	-Glo-	.	.	.	8cc\	Glo-	Glo-	.	.	.	.	.
8r	.	.	8a/	.	16ff\LL	.	.	.	.	.	.	.	.	.	.	.	.	.	8a\	-ri-	-ri-	.	.	.	16ff\LL	-ri-	-ri-	.	.	.	.	.
.	.	.	.	.	16ee\	.	.	.	.	.	.	.	.	.	.	.	.	.	.	.	.	.	.	.	16ee\JJ	.	.	.	.	.	.	.
8F\	.	.	8a/J	.	16dd\	.	.	.	.	.	.	.	.	.	.	.	.	.	8a\	-a	-a	.	.	.	16dd\LL	-a	-a	.	.	.	.	.
.	.	.	.	.	16cc\JJ	.	.	.	.	.	.	.	.	.	.	.	.	.	.	.	.	.	.	.	16cc\JJ	.	.	.	.	.	.	.
*	*	*	*Xtremolo	*	*	*	*	*	*	*	*	*	*	*	*	*	*	*	*	*	*	*	*	*	*	*	*	*	*	*	*	*
!	!	!	!LO:PB:g=original	!	!	!	!	!	!	!	!	!	!	!	!	!	!	!	!	!	!	!	!	!	!	!	!	!	!	!	!	!
=47	=47	=47	=47	=47	=47	=47	=47	=47	=47	=47	=47	=47	=47	=47	=47	=47	=47	=47	=47	=47	=47	=47	=47	=47	=47	=47	=47	=47	=47	=47	=47	=47
!LO:TX:t=P:problem=mixed beam	!	!	!	!	!	!	!	!	!	!	!	!	!	!	!	!	!	!	!	!	!	!	!	!	!	!	!	!	!	!	!	!
8c\L	.	.	(8.a/L	.	(8.cc\L	.	.	.	.	.	.	.	.	.	.	.	.	.	8.a\L	Pa-	Pa-	.	.	.	8.cc\L	pa-	pa-	.	.	.	.	.
8c\	.	.	.	.	.	.	.	.	.	.	.	.	.	.	.	.	.	.	.	.	.	.	.	.	.	.	.	.	.	.	.	.
.	.	.	16g/Jk)	.	16b-\Jk)	.	.	.	.	.	.	.	.	.	.	.	.	.	16g\Jk	.	.	.	.	.	16b-\Jk	.	.	.	.	.	.	.
8C/	.	.	8e/L	.	16g/LL	.	.	.	.	.	.	.	.	.	.	.	.	.	8e\	-tri	-tri	.	.	.	16g\LL	-tri	-tri	.	.	.	.	.
.	.	.	.	.	16a/	.	.	.	.	.	.	.	.	.	.	.	.	.	.	.	.	.	.	.	16a\JJ	.	.	.	.	.	.	.
8C/J	.	.	8e/J	.	16b-/	.	.	.	.	.	.	.	.	.	.	.	.	.	8e\	et	et	.	.	.	16b-\LL	et	et	.	.	.	.	.
.	.	.	.	.	16cc/JJ	.	.	.	.	.	.	.	.	.	.	.	.	.	.	.	.	.	.	.	16cc\JJ	.	.	.	.	.	.	.
!LO:LB:g=original	!	!	!	!	!LO:LB:g=original	!	!	!	!	!	!	!	!	!	!	!	!	!	!	!	!	!	!	!	!LO:LB:g=original	!	!	!	!	!	!	!
=48	=48	=48	=48	=48	=48	=48	=48	=48	=48	=48	=48	=48	=48	=48	=48	=48	=48	=48	=48	=48	=48	=48	=48	=48	=48	=48	=48	=48	=48	=48	=48	=48
8F\L	4	.	8g/L	.	8.b-\L	.	.	.	.	.	.	.	.	.	.	.	.	.	8.g\	Fi-	Fi-	.	.	.	8.b-\	Fi-	Fi-	.	.	.	.	.
16F\L	.	.	16a/L	.	.	.	.	.	.	.	.	.	.	.	.	.	.	.	.	.	.	.	.	.	.	.	.	.	.	.	.	.
16E\JJ	.	.	16g/JJ	.	(32cc\LL	.	.	.	.	.	.	.	.	.	.	.	.	.	16g\	-li-	-li-	.	.	.	16b-\	-li-	-li-	.	.	.	.	.
.	.	.	.	.	32b-\JJJ)	.	.	.	.	.	.	.	.	.	.	.	.	.	.	.	.	.	.	.	.	.	.	.	.	.	.	.
!LO:TX:t=P:problem=mixed beam	!	!	!	!	!	!	!	!	!	!	!	!	!	!	!	!	!	!	!	!	!	!	!	!	!	!	!	!	!	!	!	!
8F\L	3	.	8f/L	.	8a\L	.	.	.	.	.	.	.	.	.	.	.	.	.	8f\	-o	-o	.	.	.	8a\	-o	-o	.	.	.	.	.
8FF/J	.	.	8a/J	.	8cc\J	.	.	.	.	.	.	.	.	.	.	.	.	.	8a\	et	et	.	.	.	8cc\	et	et	.	.	.	.	.
!	!	!	!	!	!	!	!	!	!	!	!	!	!	!	!	!	!	!	!LO:LB:g=original	!	!	!	!	!	!	!	!	!	!	!	!	!
=49	=49	=49	=49	=49	=49	=49	=49	=49	=49	=49	=49	=49	=49	=49	=49	=49	=49	=49	=49	=49	=49	=49	=49	=49	=49	=49	=49	=49	=49	=49	=49	=49
8F\L	6 4	.	(8.b-\L	.	(8.dd\L	.	1r	.	.	.	.	.	1r	.	.	.	.	.	8.b-\L	Spi-	Spi-	.	.	.	8.dd\L	Spi-	Spi-	.	.	.	1r	1r
8F\	.	.	.	.	.	.	.	.	.	.	.	.	.	.	.	.	.	.	.	.	.	.	.	.	.	.	.	.	.	.	.	.
.	.	.	16cc\Jk)	.	16ee\Jk)	.	.	.	.	.	.	.	.	.	.	.	.	.	16cc\Jk	.	.	.	.	.	16ee\Jk	.	.	.	.	.	.	.
8F\	.	.	8dd\L	.	16gg\LL	.	.	.	.	.	.	.	.	.	.	.	.	.	8dd\	.	.	.	.	.	16gg\LL	.	.	.	.	.	.	.
.	.	.	.	.	16ff\	.	.	.	.	.	.	.	.	.	.	.	.	.	.	.	.	.	.	.	16ff\JJ	.	.	.	.	.	.	.
8F\J	.	.	16cc\L	.	16ee\	.	.	.	.	.	.	.	.	.	.	.	.	.	16cc\LL	-ri-	-ri-	.	.	.	16ee\LL	-ri-	-ri-	.	.	.	.	.
.	.	.	16b-\JJ	.	16dd\JJ	.	.	.	.	.	.	.	.	.	.	.	.	.	16b-\JJ	.	.	.	.	.	16dd\JJ	.	.	.	.	.	.	.
=50	=50	=50	=50	=50	=50	=50	=50	=50	=50	=50	=50	=50	=50	=50	=50	=50	=50	=50	=50	=50	=50	=50	=50	=50	=50	=50	=50	=50	=50	=50	=50	=50
!LO:TX:t=P:problem=mixed beam	!	!	!	!	!	!	!	!	!	!	!	!	!	!	!	!	!	!	!	!	!	!	!	!	!	!	!	!	!	!	!	!
8F\L	3	.	8a/L	.	8cc\L	.	.	.	.	.	.	.	.	.	.	.	.	.	8a\	-tu-	-tu-	.	.	.	8cc\	-tu-	-tu-	.	.	.	.	.
8B-\	6	.	16b-/L	.	16dd\L	.	.	.	.	.	.	.	.	.	.	.	.	.	16b-\LL	-i	-i	.	.	.	16dd\LL	-i	-i	.	.	.	.	.
.	.	.	16g/JJ	.	16b-\JJ	.	.	.	.	.	.	.	.	.	.	.	.	.	16g\JJ	.	.	.	.	.	16b-\JJ	.	.	.	.	.	.	.
8c\	4	.	8f/L	.	8a/L	.	.	.	.	.	.	.	.	.	.	.	.	.	8f\L	Sanc-	Sanc-	.	.	.	8a\L	Sanc-	Sanc-	.	.	.	.	.
8C/J	3	.	8e/J	.	8g/J	.	.	.	.	.	.	.	.	.	.	.	.	.	8e\J	.	.	.	.	.	8g\J	.	.	.	.	.	.	.
=51	=51	=51	=51	=51	=51	=51	=51	=51	=51	=51	=51	=51	=51	=51	=51	=51	=51	=51	=51	=51	=51	=51	=51	=51	=51	=51	=51	=51	=51	=51	=51	=51
!LO:TX:t=P:problem=mixed beam	!	!	!	!	!	!	!	!	!	!	!	!	!	!	!	!	!	!	!	!	!	!	!	!	!	!	!	!	!	!	!	!
!LO:TX:t=P:problem=niepotrzebnie wykreślony ołówkiem takt	!	!	!	!	!	!	!	!	!	!	!	!	!	!	!	!	!	!	!	!	!	!	!	!	!	!	!	!	!	!	!	!
8F\L	3	.	16f/LL	.	16a\LL	.	2r	.	.	.	.	.	2r	.	.	.	.	.	4f\	-to	-to	.	.	.	4a\	-to	-to	.	.	.	2r	2r
.	.	.	16a/	.	16cc\	.	.	.	.	.	.	.	.	.	.	.	.	.	.	.	.	.	.	.	.	.	.	.	.	.	.	.
8B-\	6	.	16b-/	.	16dd\	.	.	.	.	.	.	.	.	.	.	.	.	.	.	.	.	.	.	.	.	.	.	.	.	.	.	.
.	.	.	16cc/JJ	.	16ee\JJ	.	.	.	.	.	.	.	.	.	.	.	.	.	.	.	.	.	.	.	.	.	.	.	.	.	.	.
8c\	4	.	16dd\LL	.	16ff\LL	.	.	.	.	.	.	.	.	.	.	.	.	.	4r	.	.	.	.	.	4r	.	.	.	.	.	.	.
.	.	.	16cc\	.	16ee\	.	.	.	.	.	.	.	.	.	.	.	.	.	.	.	.	.	.	.	.	.	.	.	.	.	.	.
8C/J	3	.	16dd\	.	16ff\	.	.	.	.	.	.	.	.	.	.	.	.	.	.	.	.	.	.	.	.	.	.	.	.	.	.	.
.	.	.	16b-\JJ	.	16gg\JJ	.	.	.	.	.	.	.	.	.	.	.	.	.	.	.	.	.	.	.	.	.	.	.	.	.	.	.
!	!	!	!	!	!	!	!	!	!	!	!	!	!	!	!	!	!	!	!	!	!	!	!	!	!	!	!	!	!	!	!	!LO:LB:g=original
=52	=52	=52	=52	=52	=52	=52	=52	=52	=52	=52	=52	=52	=52	=52	=52	=52	=52	=52	=52	=52	=52	=52	=52	=52	=52	=52	=52	=52	=52	=52	=52	=52
*	*	*	*tremolo	*	*	*	*	*	*	*	*	*	*	*	*	*	*	*	*	*	*	*	*	*	*	*	*	*	*	*	*	*
!	!	!	!	!	!	!	!	!	!	!	!	!LO:MO:null:mod=!LO&colon;DY&colon;ed=brack	!	!	!	!	!	!LO:MO:null:mod=!LO&colon;DY&colon;ed=brack	!	!	!	!	!	!	!	!	!	!	!	!LO:MO:null:mod=!LO&colon;DY&colon;ed=brack	!	!
!	!	!	!	!	!	!	!	!	!	!	!	!	!	!	!	!	!	!	!	!	!	!	!	!	!	!	!	!	!	!	!	!
!	!	!	!	!LO:DY:a:rj:t=f.	!	!LO:DY:a:rj:t=for	!	!	!	!	!	!LO:MO:null:mod=f	!	!	!	!	!	!LO:MO:null:mod=f	!	!	!	!	!	!LO:DY:a:rj:t=for.	!	!	!	!	!	!LO:MO:null:mod=f	!	!
4F\	.	.	8a/L	f	(8.aa\L	f	8F\	Si-	Si-	.	.	.	8f\	Si-	Si-	.	.	.	8a\	Si-	Si-	.	.	f	8cc\	Si-	Si-	.	.	.	4f/	4ff\
.	.	.	8a/	.	.	.	8F\	-cut	-cut	.	.	.	8f\	-cut	-cut	.	.	.	8a\	-cut	-cut	.	.	.	8cc\	-cut	-cut	.	.	.	.	.
.	.	.	.	.	16ff\Jk)	.	.	.	.	.	.	.	.	.	.	.	.	.	.	.	.	.	.	.	.	.	.	.	.	.	.	.
!	!	!	!	!	!	!	!LO:LB:g=original	!	!	!	!	!	!	!	!	!	!	!	!	!	!	!	!	!	!	!	!	!	!	!	!	!
4r	.	.	8a/	.	16cc\LL	.	8F\	e-	e-	.	.	.	8f\	e-	e-	.	.	.	8a\	e-	e-	.	.	.	8cc\	e-	e-	.	.	.	4f/	4ff\
.	.	.	.	.	16a\	.	.	.	.	.	.	.	.	.	.	.	.	.	.	.	.	.	.	.	.	.	.	.	.	.	.	.
.	.	.	8a/J	.	16ff\	.	8F\	-rat	-rat	.	.	.	8f\	-rat	-rat	.	.	.	8a\	-rat	-rat	.	.	.	8cc\	-rat	-rat	.	.	.	.	.
.	.	.	.	.	16cc\JJ	.	.	.	.	.	.	.	.	.	.	.	.	.	.	.	.	.	.	.	.	.	.	.	.	.	.	.
*	*	*	*Xtremolo	*	*	*	*	*	*	*	*	*	*	*	*	*	*	*	*	*	*	*	*	*	*	*	*	*	*	*	*	*
!	!	!	!	!	!	!	!	!	!	!	!	!	!	!	!	!	!	!	!	!	!	!	!	!	!LO:LB:g=original	!	!	!	!	!	!	!
=53	=53	=53	=53	=53	=53	=53	=53	=53	=53	=53	=53	=53	=53	=53	=53	=53	=53	=53	=53	=53	=53	=53	=53	=53	=53	=53	=53	=53	=53	=53	=53	=53
!LO:TX:a:i:t=Tutti	!	!	!	!	!	!	!	!	!	!	!	!	!	!	!	!	!	!	!	!	!	!	!	!	!	!	!	!	!	!	!	!
8F\L	.	.	8b-/L	.	16dd\LL	.	8F\	in	in	.	.	.	8f\	in	in	.	.	.	8b-\	in	in	.	.	.	8dd\	in	in	.	.	.	4f/	4ff\
.	.	.	.	.	16ee\	.	.	.	.	.	.	.	.	.	.	.	.	.	.	.	.	.	.	.	.	.	.	.	.	.	.	.
8F\	.	.	8b-/	.	16ff\	.	8F\	prin-	prin-	.	.	.	8f\	prin-	prin-	.	.	.	8b-\	prin-	prin-	.	.	.	8dd\	prin-	prin-	.	.	.	.	.
.	.	.	.	.	16dd\JJ	.	.	.	.	.	.	.	.	.	.	.	.	.	.	.	.	.	.	.	.	.	.	.	.	.	.	.
!	!	!	!	!	!	!	!	!	!	!	!	!	!	!	!	!	!	!	!LO:LB:g=original	!	!	!	!	!	!	!	!	!	!	!	!	!
8F\	.	.	8a/	.	16cc\LL	.	8F\	-ci-	-ci-	.	.	.	8f\	-ci-	-ci-	.	.	.	8a\	-ci-	-ci-	.	.	.	8cc\	-ci-	-ci-	.	.	.	4f/	4ff\
.	.	.	.	.	16dd\	.	.	.	.	.	.	.	.	.	.	.	.	.	.	.	.	.	.	.	.	.	.	.	.	.	.	.
8F\J	.	.	8a/J	.	16ee\	.	8F\	-pi-	-pi-	.	.	.	8f\	-pi-	-pi-	.	.	.	8a\	-pi-	-pi-	.	.	.	8ff\	-pi-	-pi-	.	.	.	.	.
.	.	.	.	.	16ff\JJ	.	.	.	.	.	.	.	.	.	.	.	.	.	.	.	.	.	.	.	.	.	.	.	.	.	.	.
!	!	!	!LO:LB:g=original	!	!LO:LB:g=original	!	!	!	!	!	!	!	!LO:LB:g=original	!	!	!	!	!	!	!	!	!	!	!	!	!	!	!	!	!	!	!
=54	=54	=54	=54	=54	=54	=54	=54	=54	=54	=54	=54	=54	=54	=54	=54	=54	=54	=54	=54	=54	=54	=54	=54	=54	=54	=54	=54	=54	=54	=54	=54	=54
8F\L	6 4	.	8g/L	.	16gg\LL	.	8C/	-o	-o	.	.	.	8g\	-o	-o	.	.	.	8g\	-o	-o	.	.	.	8ee\	-o	-o	.	.	.	4cc/	4gg\
.	.	.	.	.	16ee\	.	.	.	.	.	.	.	.	.	.	.	.	.	.	.	.	.	.	.	.	.	.	.	.	.	.	.
8F\	.	.	8g/	.	16cc\	.	8C/	et	et	.	.	.	8g\	et	et	.	.	.	8g\	et	et	.	.	.	8ee\	et	et	.	.	.	.	.
.	.	.	.	.	16b-\JJ	.	.	.	.	.	.	.	.	.	.	.	.	.	.	.	.	.	.	.	.	.	.	.	.	.	.	.
8F\	3	.	8e/	.	16g/LL	.	8C/	nunc	nunc	.	.	.	8g\	nunc	nunc	.	.	.	8g\	nunc	nunc	.	.	.	8ee\	nunc	nunc	.	.	.	4cc/	4gg\
.	.	.	.	.	16a/	.	.	.	.	.	.	.	.	.	.	.	.	.	.	.	.	.	.	.	.	.	.	.	.	.	.	.
8F\J	.	.	8e/J	.	16b-/	.	8C/	et	et	.	.	.	8g\	et	et	.	.	.	8g\	et	et	.	.	.	8ee\	et	et	.	.	.	.	.
.	.	.	.	.	16cc/JJ	.	.	.	.	.	.	.	.	.	.	.	.	.	.	.	.	.	.	.	.	.	.	.	.	.	.	.
!LO:LB:g=original	!	!	!	!	!	!	!	!	!	!	!	!	!	!	!	!	!	!	!	!	!	!	!	!	!	!	!	!	!	!	!	!
=55	=55	=55	=55	=55	=55	=55	=55	=55	=55	=55	=55	=55	=55	=55	=55	=55	=55	=55	=55	=55	=55	=55	=55	=55	=55	=55	=55	=55	=55	=55	=55	=55
8C/L	7	.	8.g/L	.	8.b-/L	.	4F\	Sem-	Sem-	.	.	.	4f\	Sem-	Sem-	.	.	.	4b-\	Sem-	Sem-	.	.	.	4gg\	Sem-	Sem-	.	.	.	4cc/	4gg\
8C/	.	.	.	.	.	.	.	.	.	.	.	.	.	.	.	.	.	.	.	.	.	.	.	.	.	.	.	.	.	.	.	.
.	.	.	32f/LL	.	32a/LL	.	.	.	.	.	.	.	.	.	.	.	.	.	.	.	.	.	.	.	.	.	.	.	.	.	.	.
.	.	.	32g/JJJ	.	32b-/JJJ	.	.	.	.	.	.	.	.	.	.	.	.	.	.	.	.	.	.	.	.	.	.	.	.	.	.	.
8C/	.	.	8f/L	.	16a\LL	.	4F\	-per	-per	.	.	.	4f\	-per	-per	.	.	.	4a\	-per	-per	.	.	.	4ff\	-per	-per	.	.	.	8a/L	8ff\L
.	.	.	.	.	16cc\	.	.	.	.	.	.	.	.	.	.	.	.	.	.	.	.	.	.	.	.	.	.	.	.	.	.	.
8C/J	.	.	16a/L	.	16ff\	.	.	.	.	.	.	.	.	.	.	.	.	.	.	.	.	.	.	.	.	.	.	.	.	.	8a/J	8ff\J
.	.	.	16cc/JJ	.	16aa\JJ	.	.	.	.	.	.	.	.	.	.	.	.	.	.	.	.	.	.	.	.	.	.	.	.	.	.	.
!	!	!	!	!	!	!	!	!	!	!	!	!	!	!	!	!	!	!	!	!	!	!	!	!	!	!	!	!	!	!	!LO:LB:g=original	!
=56	=56	=56	=56	=56	=56	=56	=56	=56	=56	=56	=56	=56	=56	=56	=56	=56	=56	=56	=56	=56	=56	=56	=56	=56	=56	=56	=56	=56	=56	=56	=56	=56
!LO:TX:t=P:problem=mixed beam	!	!	!	!	!	!	!	!	!	!	!	!	!	!	!	!	!	!	!	!	!	!	!	!	!	!	!	!	!	!	!	!
!LO:SIC:v:s=8EL	!	!	!	!	!	!	!	!	!	!	!	!	!	!	!	!	!	!	!	!	!	!	!	!	!	!	!	!	!	!	!	!
8F\L	4	.	8b-/L	.	16gg\LL	.	4E\	et	et	.	.	.	4c\	et	et	.	.	.	4b-\	et	et	.	.	.	4gg\	et	et	.	.	.	4cc/	4gg\
.	.	.	.	.	16ee\	.	.	.	.	.	.	.	.	.	.	.	.	.	.	.	.	.	.	.	.	.	.	.	.	.	.	.
!LO:SIC:v:s=8E	!	!	!	!	!	!	!	!	!	!	!	!	!	!	!	!	!	!	!	!	!	!	!	!	!	!	!	!	!	!	!	!
8F\	.	.	8g/J	.	16cc\	.	.	.	.	.	.	.	.	.	.	.	.	.	.	.	.	.	.	.	.	.	.	.	.	.	.	.
.	.	.	.	.	16b-\JJ	.	.	.	.	.	.	.	.	.	.	.	.	.	.	.	.	.	.	.	.	.	.	.	.	.	.	.
8FF/	3	.	8f/L	.	16a\LL	.	4F\	in	in	.	.	.	4c\	in	in	.	.	.	4a\	in	in	.	.	.	4ff\	in	in	.	.	.	4a/	4ff\
.	.	.	.	.	16cc\	.	.	.	.	.	.	.	.	.	.	.	.	.	.	.	.	.	.	.	.	.	.	.	.	.	.	.
8F\J	.	.	16a/L	.	16ff\	.	.	.	.	.	.	.	.	.	.	.	.	.	.	.	.	.	.	.	.	.	.	.	.	.	.	.
.	.	.	16cc/JJ	.	16aa\JJ	.	.	.	.	.	.	.	.	.	.	.	.	.	.	.	.	.	.	.	.	.	.	.	.	.	.	.
!	!	!	!	!	!	!	!LO:LB:g=original	!	!	!	!	!	!	!	!	!	!	!	!	!	!	!	!	!	!	!	!	!	!	!	!	!
=57	=57	=57	=57	=57	=57	=57	=57	=57	=57	=57	=57	=57	=57	=57	=57	=57	=57	=57	=57	=57	=57	=57	=57	=57	=57	=57	=57	=57	=57	=57	=57	=57
8E\L	6 5	.	8b-/L	.	16gg\LL	.	4E\	Se-	Se-	.	.	.	4c\	Se-	Se-	.	.	.	4b-\	Se-	Se-	.	.	.	4gg\	Se-	Se-	.	.	.	4cc/	4gg\
.	.	.	.	.	16ee\	.	.	.	.	.	.	.	.	.	.	.	.	.	.	.	.	.	.	.	.	.	.	.	.	.	.	.
8E\	.	.	8g/J	.	16cc\	.	.	.	.	.	.	.	.	.	.	.	.	.	.	.	.	.	.	.	.	.	.	.	.	.	.	.
.	.	.	.	.	16b-\JJ	.	.	.	.	.	.	.	.	.	.	.	.	.	.	.	.	.	.	.	.	.	.	.	.	.	.	.
8F\	.	.	8f/L	.	16a\LL	.	8F\	-cu-	-cu-	.	.	.	8c\	-cu-	-cu-	.	.	.	8a\	-cu-	-cu-	.	.	.	8ff\	-cu-	-cu-	.	.	.	8a/	8ff\
.	.	.	.	.	16cc\	.	.	.	.	.	.	.	.	.	.	.	.	.	.	.	.	.	.	.	.	.	.	.	.	.	.	.
8F\J	.	.	16a/L	.	16ff\	.	8F\	-la	-la	.	.	.	8c\	-la	-la	.	.	.	8cc\	-la	-la	.	.	.	8ff\	-la	-la	.	.	.	8r	8r
.	.	.	16cc/JJ	.	16aa\JJ	.	.	.	.	.	.	.	.	.	.	.	.	.	.	.	.	.	.	.	.	.	.	.	.	.	.	.
!	!	!	!	!	!	!	!	!	!	!	!	!	!	!	!	!	!	!	!	!	!	!	!	!	!LO:LB:g=original	!	!	!	!	!	!	!
=58	=58	=58	=58	=58	=58	=58	=58	=58	=58	=58	=58	=58	=58	=58	=58	=58	=58	=58	=58	=58	=58	=58	=58	=58	=58	=58	=58	=58	=58	=58	=58	=58
*	*	*	*tremolo	*	*	*	*	*	*	*	*	*	*	*	*	*	*	*	*	*	*	*	*	*	*	*	*	*	*	*	*	*
!LO:SIC:v:s=8B-L	!	!	!	!	!	!	!	!	!	!	!	!	!	!	!	!	!	!	!	!	!	!	!	!	!	!	!	!	!	!	!	!
8E\L	6 5	.	8dd\L	.	16gg\LL	.	4B-\	Se-	Se-	.	.	.	4B-\	Se-	Se-	.	.	.	4dd\	Se-	Se-	.	.	.	4gg\	Se-	Se-	.	.	.	1r	1r
.	.	.	.	.	16bb-\	.	.	.	.	.	.	.	.	.	.	.	.	.	.	.	.	.	.	.	.	.	.	.	.	.	.	.
!LO:SIC:v:s=8B-	!	!	!	!	!	!	!	!	!	!	!	!	!	!	!	!	!	!	!	!	!	!	!	!	!	!	!	!	!	!	!	!
8E\	.	.	8dd\	.	16aa\	.	.	.	.	.	.	.	.	.	.	.	.	.	.	.	.	.	.	.	.	.	.	.	.	.	.	.
.	.	.	.	.	16gg\JJ	.	.	.	.	.	.	.	.	.	.	.	.	.	.	.	.	.	.	.	.	.	.	.	.	.	.	.
!LO:SIC:v:s=8B-	!	!	!	!	!	!	!	!	!	!	!	!	!	!	!	!	!	!	!	!	!	!	!	!	!	!	!	!	!	!	!	!
8F\	.	.	8dd\	.	16ff#X\LL	.	4B-\	-cu-	-cu-	.	.	.	4B-\	-cu-	-cu-	.	.	.	4dd\	-cu-	-cu-	.	.	.	4gg\	-cu-	-cu-	.	.	.	.	.
.	.	.	.	.	16gg\	.	.	.	.	.	.	.	.	.	.	.	.	.	.	.	.	.	.	.	.	.	.	.	.	.	.	.
!LO:SIC:v:s=8B-J	!	!	!	!	!	!	!	!	!	!	!	!	!	!	!	!	!	!	!	!	!	!	!	!	!	!	!	!	!	!	!	!
8F\J	.	.	8dd\J	.	16ff#\	.	.	.	.	.	.	.	.	.	.	.	.	.	.	.	.	.	.	.	.	.	.	.	.	.	.	.
.	.	.	.	.	16gg\JJ	.	.	.	.	.	.	.	.	.	.	.	.	.	.	.	.	.	.	.	.	.	.	.	.	.	.	.
!	!	!	!	!	!LO:LB:g=original	!	!	!	!	!	!	!	!	!	!	!	!	!	!LO:LB:g=original	!	!	!	!	!	!	!	!	!	!	!	!	!
=59	=59	=59	=59	=59	=59	=59	=59	=59	=59	=59	=59	=59	=59	=59	=59	=59	=59	=59	=59	=59	=59	=59	=59	=59	=59	=59	=59	=59	=59	=59	=59	=59
!LO:SIC:v:s=8AL	!	!	!	!	!	!	!	!	!	!	!	!	!	!	!	!	!	!	!	!	!	!	!	!	!	!	!	!	!	!	!	!
8B-\L	6	.	8cc\L	.	16ffn\LL	.	4A\	-lo-	-lo-	.	.	.	4c\	-lo-	-lo-	.	.	.	4cc\	-lo-	-lo-	.	.	.	4ff\	-lo-	-lo-	.	.	.	.	.
.	.	.	.	.	16aa\	.	.	.	.	.	.	.	.	.	.	.	.	.	.	.	.	.	.	.	.	.	.	.	.	.	.	.
!LO:SIC:v:s=8A	!	!	!	!	!	!	!	!	!	!	!	!	!	!	!	!	!	!	!	!	!	!	!	!	!	!	!	!	!	!	!	!
8B-\	.	.	8cc\	.	16gg\	.	.	.	.	.	.	.	.	.	.	.	.	.	.	.	.	.	.	.	.	.	.	.	.	.	.	.
.	.	.	.	.	16ff\JJ	.	.	.	.	.	.	.	.	.	.	.	.	.	.	.	.	.	.	.	.	.	.	.	.	.	.	.
!LO:SIC:v:s=8A	!	!	!	!	!	!	!	!	!	!	!	!	!	!	!	!	!	!	!	!	!	!	!	!	!	!	!	!	!	!	!	!
8B-\	.	.	8cc\	.	16ee\LL	.	4A\	-rum	-rum	.	.	.	4c\	-rum	-rum	.	.	.	4cc\	-rum	-rum	.	.	.	4ff\	-rum	-rum	.	.	.	.	.
.	.	.	.	.	16ff\	.	.	.	.	.	.	.	.	.	.	.	.	.	.	.	.	.	.	.	.	.	.	.	.	.	.	.
!LO:SIC:v:s=8AJ	!	!	!	!	!	!	!	!	!	!	!	!	!	!	!	!	!	!	!	!	!	!	!	!	!	!	!	!	!	!	!	!
8B-\J	.	.	8cc\J	.	16ee\	.	.	.	.	.	.	.	.	.	.	.	.	.	.	.	.	.	.	.	.	.	.	.	.	.	.	.
.	.	.	.	.	16ff\JJ	.	.	.	.	.	.	.	.	.	.	.	.	.	.	.	.	.	.	.	.	.	.	.	.	.	.	.
*	*	*	*Xtremolo	*	*	*	*	*	*	*	*	*	*	*	*	*	*	*	*	*	*	*	*	*	*	*	*	*	*	*	*	*
!	!	!	!	!	!	!	!	!	!	!	!	!	!LO:LB:g=original	!	!	!	!	!	!	!	!	!	!	!	!	!	!	!	!	!	!	!
=60	=60	=60	=60	=60	=60	=60	=60	=60	=60	=60	=60	=60	=60	=60	=60	=60	=60	=60	=60	=60	=60	=60	=60	=60	=60	=60	=60	=60	=60	=60	=60	=60
!LO:TX:t=P:problem=mixed beam	!	!	!	!	!	!	!	!	!	!	!	!	!	!	!	!	!	!	!	!	!	!	!	!	!	!	!	!	!	!	!	!
8B-\L	6	.	8b-\L	.	16ff#X\LL	.	4B-\	a-	a-	.	.	.	4d\	a-	a-	.	.	.	4b-\	a-	a-	.	.	.	4gg\	a-	a-	.	.	.	8r	8r
.	.	.	.	.	16gg\	.	.	.	.	.	.	.	.	.	.	.	.	.	.	.	.	.	.	.	.	.	.	.	.	.	.	.
8B-\	.	.	16dd\L	.	16bb-\	.	.	.	.	.	.	.	.	.	.	.	.	.	.	.	.	.	.	.	.	.	.	.	.	.	8gg\L	8bb-\L
.	.	.	16b-\JJ	.	16gg\JJ	.	.	.	.	.	.	.	.	.	.	.	.	.	.	.	.	.	.	.	.	.	.	.	.	.	.	.
!	!	!	!	!	!	!	!LO:TX:t=P:problem=mixed beam	!	!	!	!	!	!	!	!	!	!	!	!	!	!	!	!	!	!	!	!	!	!	!	!	!
8c\	4	.	16b-/LL	.	16gg\LL	.	8c\L	.	.	.	.	.	4c\	.	.	.	.	.	8a\L	.	.	.	.	.	8ff\L	.	.	.	.	.	8ff\	8aa\
.	.	.	16a/	.	16ffn\	.	.	.	.	.	.	.	.	.	.	.	.	.	.	.	.	.	.	.	.	.	.	.	.	.	.	.
8C/J	3	.	16a/	.	16ff\	.	8C/J	.	.	.	.	.	.	.	.	.	.	.	8g\J	.	.	.	.	.	8ee\J	.	.	.	.	.	8cc\J	8gg\J
.	.	.	16g/JJ	.	16ee\JJ	.	.	.	.	.	.	.	.	.	.	.	.	.	.	.	.	.	.	.	.	.	.	.	.	.	.	.
!	!	!	!LO:LB:g=original	!	!	!	!	!	!	!	!	!	!	!	!	!	!	!	!	!	!	!	!	!	!	!	!	!	!	!	!	!
=61	=61	=61	=61	=61	=61	=61	=61	=61	=61	=61	=61	=61	=61	=61	=61	=61	=61	=61	=61	=61	=61	=61	=61	=61	=61	=61	=61	=61	=61	=61	=61	=61
8F\L	.	.	4a/	.	8ff\	.	8F\	-men	-men	.	.	.	8B-\	-men	-men	.	.	.	4a\	-men	-men	.	.	.	8ff\	-men	-men	.	.	.	8a/	8ff\L
8D\	.	.	.	.	4ff\	.	8d\	a-	a-	.	.	.	4d\	a-	a-	.	.	.	.	.	.	.	.	.	4ff\	a-	a-	.	.	.	4ff\	8aa\J
8BB-\	6 5	.	4g/	.	.	.	8B-\L	.	.	.	.	.	.	.	.	.	.	.	4g\	a-	a-	.	.	.	.	.	.	.	.	.	.	4gg\
8C\J	.	.	.	.	8ee\	.	8c\J	.	.	.	.	.	8c\	.	.	.	.	.	.	.	.	.	.	.	8ee\	.	.	.	.	.	8cc/	.
!LO:LB:g=original	!	!	!	!	!	!	!	!	!	!	!	!	!	!	!	!	!	!	!	!	!	!	!	!	!	!	!	!	!	!	!	!
=62	=62	=62	=62	=62	=62	=62	=62	=62	=62	=62	=62	=62	=62	=62	=62	=62	=62	=62	=62	=62	=62	=62	=62	=62	=62	=62	=62	=62	=62	=62	=62	=62
4FF/	.	.	4a/	.	4ff 4a\	.	4F\	-men	-men	.	.	.	4c\	-men	-men	.	.	.	4a\	-men	-men	.	.	.	4ff\	-men	-men	.	.	.	4a/	4ff\
!LO:TX:b:i:t=Verte Magnificat:mod=	!	!	!	!	!	!	!	!	!	!	!	!	!	!	!	!	!	!	!	!	!	!	!	!	!	!	!	!	!	!	!	!
4r	.	.	4r	.	4r	.	4r	.	.	.	.	.	4r	.	.	.	.	.	4r	.	.	.	.	.	4r	.	.	.	.	.	4r	4r
==	==	==	==	==	==	==	==	==	==	==	==	==	==	==	==	==	==	==	==	==	==	==	==	==	==	==	==	==	==	==	==	==
*-	*-	*-	*-	*-	*-	*-	*-	*-	*-	*-	*-	*-	*-	*-	*-	*-	*-	*-	*-	*-	*-	*-	*-	*-	*-	*-	*-	*-	*-	*-	*-	*-
!!!system-decoration: [(g1)][(g2)][(g3)]s9
!!!RDF**kern: @ = marked note, color=#aaa
!!!filter-modern: sic -sq | shed -e "s/:rj/:RJ/L" | modori -m | shed -e "s/LO:DY:(a|b|rj)/LO:dy:$1/L" | autostem -r | tie -s | shed -k -e "s/[<>]//g" | humtr -p
!!!ENC: Marta Opryszak
!!!END: 2021-12-03
!!!ENC: Marta Lawrence
!!!END: 2021-12-12
!!!ENC-modern: Andrzej Borzym
!!!END-modern: 2022-06-21
!!!YEC: Copyright 2022 Narodowy Instytut Fryderyka Chopina (https://polishscores.org)
!!!YEM: Licence CC BY 4.0 (https://creativecommons.org/licenses/by/4.0)
